; HEADER_BLOCK_START
; generated by AnycubicSlicerNext 1.3.9.3 on 2026-02-23 at 18:41:33
; total layer number: 100
; filament_density: 1.24
; filament_diameter: 1.75
; max_z_height: 20.04
; exclude_object: 0
; model_instances: 1
; source_info: {"models":[{"file_source":0,"mo_file_id":-1,"name":"EndY2.stl_id_0_copy_0"}],"models_from":0,"plate_index":1,"slice_paras_process":2,"software_version":"AnycubicSlicerNext 1.3.9.3 20260131154219"}
; paint_info = [{"material_type":"PLA","paint_color":[105,164,255],"paint_index":0}]
; project_info = {"flush_multiplier":1.0,"flush_volumes_chan_multipliers":[1.0,1.0,1.0,1.0],"flush_volumes_matrix":[0.0],"flush_volumes_vector":[140.0,140.0]}
; flush_multiplier_calculate_by_acnext: 1
; test_mode: 0
; HEADER_BLOCK_END

; THUMBNAIL_BLOCK_START
; THUMBNAIL_BLOCK_END

; external perimeters extrusion width = 0.42mm
; perimeters extrusion width = 0.45mm
; infill extrusion width = 0.45mm
; solid infill extrusion width = 0.42mm
; top infill extrusion width = 0.42mm
; first layer extrusion width = 0.50mm

; EXECUTABLE_BLOCK_START
M201 X2000 Y2000 Z800 E2000
M203 X300 Y300 Z8 E100
M204 P2000 R2000 T2000
M205 X10.00 Y10.00 Z2.00 E5.00
;TYPE:Custom
G90 ; use absolute coordinates
M83 ; extruder relative mode
M104 S220 ; set extruder temp
M140 S60 ; set bed temp
M190 S60 ; wait for bed temp
M109 S220 ; wait for extruder temp
G28                                        ; move X/Y/Z to min endstops
G1 Z0.28                                   ; lift nozzle a bit 
G92 E0 
G1 Y3 F1800                                    ; zero the extruded length 
G1 X60  E25 F500                       ; Extrude 25mm of filament in a 5cm line. 
G92 E0                                     ; zero the extruded length again 
G1 E-2 F500                                ; Retract a little 
G1 X70 F4000                              ; Quickly wipe away from the filament line
M117
G90
G21
M83 ; use relative distances for extrusion
; EXECUTABLE_BLOCK_HEAD
; filament start gcode
M75 ; The first extruder is ready.
M106 S0
;LAYER_CHANGE
;Z:0.24
;HEIGHT:0.24
; BEFORE_LAYER_CHANGE 0 @ 0.24mm
G92 E0
; AFTER_LAYER_CHANGE 0 @ 0.24mm
M204 S500
; printing object "EndY2.stl" id:0 copy 0
G1 E-.8 F3600
G1 X102.478 Y71.574 F18000
G1 Z.24
G1 E.8 F3600
;TYPE:Brim
;WIDTH:0.5
G1 F2400
G1 X102.874 Y71.077 E.02788
G1 X103.339 Y70.644 E.02788
G1 X103.864 Y70.285 E.02788
G1 X104.436 Y70.008 E.02788
G1 X105.043 Y69.82 E.02788
G1 X105.675 Y69.723 E.02806
G1 X106.004 Y69.71 E.01444
G1 X113.992 Y69.71 E.35029
G1 X114.634 Y69.758 E.02825
G1 X115.254 Y69.899 E.02788
G1 X115.846 Y70.131 E.02788
G1 X116.396 Y70.449 E.02788
G1 X116.894 Y70.844 E.02788
G1 X117.327 Y71.31 E.02788
G1 X117.686 Y71.834 E.02788
G1 X117.963 Y72.407 E.02788
G1 X118.151 Y73.014 E.02788
G1 X118.248 Y73.646 E.02806
G1 X118.261 Y73.975 E.01444
G1 X118.261 Y103.092 E1.27694
G1 X118.213 Y103.734 E.02825
G1 X118.094 Y104.256 E.02348
G1 X118.098 Y104.372 E.00511
G1 X118.151 Y104.543 E.00783
G1 X118.248 Y105.175 E.02806
G1 X118.261 Y105.504 E.01444
G1 X118.261 Y114.492 E.39415
G1 X118.213 Y115.134 E.02825
G1 X118.094 Y115.656 E.02348
G1 X118.098 Y115.772 E.00511
G1 X118.151 Y115.943 E.00783
G1 X118.248 Y116.575 E.02806
G1 X118.261 Y116.904 E.01444
G1 X118.261 Y146.021 E1.27694
G1 X118.213 Y146.663 E.02825
G1 X118.071 Y147.283 E.02788
G1 X117.84 Y147.875 E.02788
G1 X117.522 Y148.426 E.02788
G1 X117.126 Y148.923 E.02788
G1 X116.661 Y149.356 E.02788
G1 X116.136 Y149.715 E.02788
G1 X115.564 Y149.992 E.02788
G1 X114.957 Y150.18 E.02788
G1 X114.325 Y150.277 E.02806
G1 X113.996 Y150.29 E.01444
G1 X106.008 Y150.29 E.35029
G1 X105.366 Y150.242 E.02825
G1 X104.746 Y150.101 E.02788
G1 X104.154 Y149.869 E.02788
G1 X103.604 Y149.551 E.02788
G1 X103.106 Y149.156 E.02788
G1 X102.673 Y148.69 E.02788
G1 X102.314 Y148.166 E.02788
G1 X102.037 Y147.593 E.02788
G1 X101.849 Y146.986 E.02788
G1 X101.752 Y146.354 E.02806
G1 X101.739 Y146.025 E.01444
G1 X101.739 Y116.908 E1.27694
G1 X101.787 Y116.266 E.02825
G1 X101.906 Y115.744 E.02348
G1 X101.902 Y115.628 E.00511
G1 X101.849 Y115.457 E.00783
G1 X101.752 Y114.825 E.02806
G1 X101.739 Y114.496 E.01444
G1 X101.739 Y105.508 E.39415
G1 X101.787 Y104.866 E.02825
G1 X101.906 Y104.344 E.02348
G1 X101.902 Y104.228 E.00511
G1 X101.849 Y104.057 E.00783
G1 X101.752 Y103.425 E.02806
G1 X101.739 Y103.096 E.01444
G1 X101.739 Y73.979 E1.27694
G1 X101.787 Y73.337 E.02825
G1 X101.929 Y72.717 E.02788
G1 X102.16 Y72.125 E.02788
G1 X102.458 Y71.609 E.02612
G1 X102.845 Y71.836 F18000
G1 F2400
G1 X103.197 Y71.39 E.02493
G1 X103.613 Y71.002 E.02493
G1 X104.081 Y70.68 E.02493
G1 X104.592 Y70.431 E.02493
G1 X105.134 Y70.261 E.02493
G1 X105.71 Y70.171 E.02557
G1 X106.016 Y70.159 E.01339
G1 X113.98 Y70.159 E.34928
G1 X114.577 Y70.205 E.02626
G1 X115.131 Y70.333 E.02493
G1 X115.641 Y70.533 E.02405
G1 X116.135 Y70.815 E.02493
G1 X116.595 Y71.182 E.02581
G1 X116.981 Y71.599 E.02493
G1 X117.291 Y72.052 E.02405
G1 X117.54 Y72.563 E.02493
G1 X117.714 Y73.125 E.02581
G1 X117.801 Y73.702 E.02558
G1 X117.812 Y103.07 E1.28797
G1 X117.769 Y103.657 E.02582
G1 X117.658 Y104.148 E.02206
G1 X117.646 Y104.282 E.00592
G1 X117.8 Y105.21 E.04127
G1 X117.812 Y105.516 E.01339
G1 X117.812 Y114.47 E.3927
G1 X117.769 Y115.057 E.02582
G1 X117.658 Y115.548 E.02206
G1 X117.646 Y115.682 E.00592
G1 X117.8 Y116.61 E.04127
G1 X117.812 Y116.916 E.01339
G1 X117.812 Y145.999 E1.27548
G1 X117.769 Y146.586 E.02582
G1 X117.644 Y147.141 E.02493
G1 X117.438 Y147.671 E.02493
G1 X117.155 Y148.164 E.02493
G1 X116.803 Y148.61 E.02493
G1 X116.387 Y148.998 E.02493
G1 X115.919 Y149.32 E.02493
G1 X115.408 Y149.569 E.02493
G1 X114.866 Y149.739 E.02493
G1 X114.29 Y149.829 E.02557
G1 X113.984 Y149.841 E.01339
G1 X106.03 Y149.841 E.34884
G1 X105.443 Y149.798 E.02582
G1 X104.869 Y149.667 E.02581
G1 X104.341 Y149.458 E.02493
G1 X103.849 Y149.173 E.02493
G1 X103.42 Y148.832 E.02405
G1 X103.031 Y148.417 E.02493
G1 X102.709 Y147.948 E.02493
G1 X102.453 Y147.419 E.02581
G1 X102.286 Y146.875 E.02493
G1 X102.199 Y146.298 E.02558
G1 X102.188 Y116.93 E1.28797
G1 X102.231 Y116.343 E.02582
G1 X102.342 Y115.852 E.02206
G1 X102.354 Y115.718 E.00592
G1 X102.2 Y114.79 E.04127
G1 X102.188 Y114.484 E.01339
G1 X102.188 Y105.53 E.3927
G1 X102.231 Y104.943 E.02582
G1 X102.342 Y104.452 E.02206
G1 X102.354 Y104.318 E.00592
G1 X102.2 Y103.39 E.04127
G1 X102.188 Y103.084 E.01339
G1 X102.188 Y74.001 E1.27549
G1 X102.231 Y73.414 E.02582
G1 X102.356 Y72.859 E.02493
G1 X102.562 Y72.329 E.02493
G1 X102.825 Y71.871 E.02318
G1 X103.212 Y72.097 F18000
G1 F2400
G1 X103.522 Y71.703 E.02198
G1 X103.887 Y71.359 E.02198
G1 X104.299 Y71.074 E.02198
G1 X104.749 Y70.853 E.02198
G1 X105.227 Y70.702 E.02198
G1 X105.747 Y70.619 E.02309
G1 X106.028 Y70.607 E.01232
G1 X113.957 Y70.607 E.34777
G1 X114.499 Y70.649 E.02381
G1 X115.007 Y70.766 E.02288
G1 X115.456 Y70.943 E.02116
G1 X115.873 Y71.183 E.0211
G1 X116.281 Y71.505 E.02281
G1 X116.635 Y71.888 E.02286
G1 X116.906 Y72.287 E.02116
G1 X117.117 Y72.719 E.0211
G1 X117.273 Y73.215 E.02281
G1 X117.353 Y73.745 E.0235
G1 X117.364 Y103.048 E1.28511
G1 X117.325 Y103.581 E.02343
G1 X117.222 Y104.042 E.02073
G1 X117.2 Y104.234 E.00844
G1 X117.205 Y104.364 E.00572
G1 X117.351 Y105.248 E.03931
G1 X117.364 Y105.528 E.01226
G1 X117.364 Y114.448 E.39122
G1 X117.325 Y114.981 E.02343
G1 X117.222 Y115.442 E.02073
G1 X117.2 Y115.634 E.00844
G1 X117.205 Y115.764 E.00572
G1 X117.351 Y116.648 E.03931
G1 X117.364 Y116.928 E.01226
G1 X117.364 Y145.977 E1.27401
G1 X117.325 Y146.51 E.02342
G1 X117.216 Y147 E.022
G1 X117.036 Y147.467 E.02198
G1 X116.788 Y147.903 E.02198
G1 X116.478 Y148.297 E.02198
G1 X116.113 Y148.641 E.02198
G1 X115.701 Y148.926 E.02198
G1 X115.251 Y149.147 E.02198
G1 X114.773 Y149.298 E.02198
G1 X114.253 Y149.381 E.02309
G1 X113.972 Y149.393 E.01233
G1 X106.052 Y149.393 E.34737
G1 X105.52 Y149.354 E.02339
G1 X105.012 Y149.24 E.02282
G1 X104.528 Y149.049 E.02284
G1 X104.094 Y148.796 E.022
G1 X103.718 Y148.494 E.02116
G1 X103.389 Y148.142 E.02114
G1 X103.093 Y147.713 E.02284
G1 X102.868 Y147.244 E.02281
G1 X102.723 Y146.765 E.02195
G1 X102.647 Y146.255 E.02264
G1 X102.636 Y116.952 E1.28512
G1 X102.675 Y116.419 E.02342
G1 X102.778 Y115.958 E.02073
G1 X102.8 Y115.766 E.00844
G1 X102.795 Y115.636 E.00572
G1 X102.649 Y114.752 E.03931
G1 X102.636 Y114.472 E.01226
G1 X102.636 Y105.552 E.39123
G1 X102.675 Y105.019 E.02343
G1 X102.778 Y104.558 E.02073
G1 X102.8 Y104.366 E.00844
G1 X102.795 Y104.236 E.00572
G1 X102.649 Y103.352 E.03931
G1 X102.636 Y103.072 E.01226
G1 X102.636 Y74.023 E1.27402
G1 X102.675 Y73.49 E.02342
G1 X102.784 Y73 E.022
G1 X102.964 Y72.533 E.02198
G1 X103.192 Y72.132 E.02023
G1 X103.58 Y72.357 F18000
G1 F2400
G1 X103.848 Y72.014 E.01903
G1 X104.178 Y71.703 E.01991
G1 X104.536 Y71.457 E.01903
G1 X104.926 Y71.268 E.01903
G1 X105.34 Y71.138 E.01903
G1 X105.784 Y71.067 E.01972
G1 X106.04 Y71.056 E.01124
G1 X113.935 Y71.056 E.34623
G1 X114.421 Y71.093 E.02136
G1 X114.883 Y71.199 E.0208
G1 X115.252 Y71.345 E.0174
G1 X115.613 Y71.55 E.0182
G1 X115.967 Y71.829 E.01979
G1 X116.289 Y72.176 E.02075
G1 X116.512 Y72.504 E.0174
G1 X116.695 Y72.876 E.0182
G1 X116.836 Y73.327 E.0207
G1 X116.904 Y73.789 E.02048
G1 X116.915 Y103.027 E1.28226
G1 X116.88 Y103.506 E.02107
G1 X116.786 Y103.938 E.01939
G1 X116.752 Y104.258 E.01409
G1 X116.764 Y104.444 E.00821
G1 X116.903 Y105.287 E.03747
G1 X116.915 Y105.541 E.01113
G1 X116.915 Y114.427 E.38972
G1 X116.88 Y114.906 E.02107
G1 X116.786 Y115.338 E.01939
G1 X116.752 Y115.658 E.01409
G1 X116.764 Y115.844 E.00821
G1 X116.903 Y116.687 E.03747
G1 X116.915 Y116.941 E.01113
G1 X116.915 Y145.956 E1.2725
G1 X116.88 Y146.435 E.02106
G1 X116.787 Y146.86 E.01908
G1 X116.633 Y147.265 E.01903
G1 X116.42 Y147.643 E.01903
G1 X116.152 Y147.986 E.01903
G1 X115.822 Y148.297 E.01991
G1 X115.464 Y148.543 E.01903
G1 X115.074 Y148.732 E.01903
G1 X114.66 Y148.862 E.01903
G1 X114.216 Y148.933 E.01972
G1 X113.96 Y148.944 E.01124
G1 X106.073 Y148.944 E.34587
G1 X105.596 Y148.91 E.02099
G1 X105.135 Y148.806 E.02072
G1 X104.715 Y148.639 E.0198
G1 X104.341 Y148.419 E.01903
G1 X104.031 Y148.17 E.01744
G1 X103.746 Y147.868 E.01823
G1 X103.489 Y147.496 E.01982
G1 X103.292 Y147.09 E.01979
G1 X103.16 Y146.657 E.01986
G1 X103.096 Y146.212 E.01972
G1 X103.085 Y116.973 E1.2823
G1 X103.12 Y116.494 E.02106
G1 X103.214 Y116.062 E.01939
G1 X103.248 Y115.742 E.01409
G1 X103.236 Y115.556 E.00821
G1 X103.097 Y114.713 E.03747
G1 X103.085 Y114.46 E.01112
G1 X103.085 Y105.573 E.38972
G1 X103.12 Y105.094 E.02107
G1 X103.214 Y104.662 E.01939
G1 X103.248 Y104.342 E.01409
G1 X103.236 Y104.156 E.00821
G1 X103.097 Y103.313 E.03747
G1 X103.085 Y103.06 E.01112
G1 X103.085 Y74.044 E1.27251
G1 X103.12 Y73.565 E.02106
G1 X103.213 Y73.14 E.01908
G1 X103.367 Y72.735 E.01903
G1 X103.561 Y72.391 E.01728
G1 X103.953 Y72.612 F18000
G1 F2400
G1 X103.961 Y72.598 E.00072
G1 X104.187 Y72.31 E.01606
G1 X104.469 Y72.048 E.0169
G1 X104.771 Y71.842 E.01604
G1 X105.102 Y71.683 E.01609
G1 X105.453 Y71.574 E.01611
G1 X105.823 Y71.516 E.01643
G1 X106.054 Y71.504 E.01015
G1 X113.913 Y71.504 E.34467
G1 X114.343 Y71.537 E.01891
G1 X114.759 Y71.632 E.01871
G1 X115.066 Y71.755 E.01451
G1 X115.353 Y71.919 E.01449
G1 X115.654 Y72.153 E.01674
G1 X115.943 Y72.464 E.01861
G1 X116.127 Y72.739 E.0145
G1 X116.273 Y73.034 E.01445
G1 X116.394 Y73.417 E.01762
G1 X116.456 Y73.832 E.01838
G1 X116.467 Y103.006 E1.27946
G1 X116.436 Y103.432 E.01874
G1 X116.34 Y103.897 E.02081
G1 X116.305 Y104.293 E.01744
G1 X116.322 Y104.524 E.01015
G1 X116.455 Y105.327 E.0357
G1 X116.467 Y105.554 E.00999
G1 X116.467 Y114.406 E.38818
G1 X116.436 Y114.832 E.01875
G1 X116.34 Y115.297 E.02081
G1 X116.305 Y115.693 E.01744
G1 X116.322 Y115.924 E.01015
G1 X116.455 Y116.727 E.0357
G1 X116.467 Y116.954 E.00999
G1 X116.467 Y145.935 E1.27097
G1 X116.436 Y146.361 E.01873
G1 X116.359 Y146.722 E.01618
G1 X116.229 Y147.065 E.01609
G1 X116.039 Y147.402 E.01696
G1 X115.813 Y147.69 E.01606
G1 X115.531 Y147.952 E.0169
G1 X115.229 Y148.158 E.01604
G1 X114.898 Y148.317 E.01609
G1 X114.547 Y148.426 E.01611
G1 X114.177 Y148.484 E.01643
G1 X113.946 Y148.496 E.01016
G1 X106.094 Y148.496 E.34434
G1 X105.672 Y148.466 E.01858
G1 X105.278 Y148.379 E.01767
G1 X104.904 Y148.23 E.01765
G1 X104.589 Y148.042 E.01609
G1 X104.329 Y147.833 E.01463
G1 X104.102 Y147.592 E.01452
G1 X103.883 Y147.278 E.01681
G1 X103.715 Y146.935 E.01672
G1 X103.602 Y146.569 E.01683
G1 X103.544 Y146.17 E.01767
G1 X103.533 Y116.994 E1.27954
G1 X103.564 Y116.568 E.01874
G1 X103.66 Y116.103 E.02081
G1 X103.695 Y115.707 E.01744
G1 X103.678 Y115.476 E.01015
G1 X103.545 Y114.673 E.0357
G1 X103.533 Y114.446 E.00999
G1 X103.533 Y105.594 E.38819
G1 X103.564 Y105.168 E.01874
G1 X103.66 Y104.703 E.02081
G1 X103.695 Y104.307 E.01744
G1 X103.678 Y104.076 E.01015
G1 X103.545 Y103.273 E.0357
G1 X103.533 Y103.046 E.00999
G1 X103.533 Y74.065 E1.27097
G1 X103.564 Y73.639 E.01873
G1 X103.641 Y73.278 E.01618
G1 X103.771 Y72.935 E.01609
G1 X103.933 Y72.647 E.01449
G1 X104.326 Y72.868 F18000
G1 F2400
G1 X104.557 Y72.581 E.01618
G1 X104.888 Y72.314 E.01864
G1 X105.239 Y72.127 E.01747
G1 X105.557 Y72.025 E.01462
G1 X106.048 Y71.953 E.0218
G1 X113.967 Y71.953 E.34728
G1 X114.257 Y71.983 E.01277
G1 X114.633 Y72.074 E.01697
G1 X114.906 Y72.185 E.01295
G1 X115.185 Y72.355 E.01432
G1 X115.465 Y72.604 E.01643
G1 X115.658 Y72.858 E.01399
G1 X115.798 Y73.11 E.01265
G1 X115.966 Y73.62 E.02355
G1 X116.008 Y73.864 E.01087
G1 X116.018 Y103.051 E1.28002
G1 X115.9 Y103.715 E.02958
G1 X115.784 Y104.009 E.01383
G1 X115.65 Y104.238 E.01167
G1 X115.647 Y104.368 E.0057
G1 X115.844 Y104.749 E.01878
G1 X115.965 Y105.144 E.01814
G1 X116.018 Y105.54 E.01753
G1 X116.018 Y114.451 E.39081
G1 X115.9 Y115.115 E.02958
G1 X115.784 Y115.409 E.01383
G1 X115.65 Y115.638 E.01167
G1 X115.647 Y115.768 E.0057
G1 X115.844 Y116.149 E.01878
G1 X115.965 Y116.544 E.01814
G1 X116.018 Y116.94 E.01753
G1 X116.018 Y145.982 E1.27364
G1 X115.925 Y146.551 E.02533
G1 X115.823 Y146.855 E.01404
G1 X115.674 Y147.132 E.01377
G1 X115.44 Y147.422 E.01635
G1 X115.192 Y147.634 E.01435
G1 X114.859 Y147.828 E.01686
G1 X114.351 Y147.995 E.02349
G1 X114.106 Y148.038 E.01087
G1 X106.033 Y148.047 E.35406
G1 X105.743 Y148.017 E.01277
G1 X105.367 Y147.926 E.01697
G1 X105.094 Y147.815 E.01295
G1 X104.815 Y147.645 E.01432
G1 X104.535 Y147.396 E.01643
G1 X104.343 Y147.143 E.01394
G1 X104.159 Y146.794 E.01728
G1 X104.055 Y146.479 E.01457
G1 X104.001 Y146.19 E.01287
G1 X103.982 Y116.949 E1.28242
G1 X104.1 Y116.285 E.02958
G1 X104.215 Y115.991 E.01383
G1 X104.35 Y115.761 E.01172
G1 X104.354 Y115.632 E.00566
G1 X104.121 Y115.174 E.02253
G1 X104.055 Y114.945 E.01044
G1 X103.982 Y114.452 E.02188
G1 X103.982 Y105.549 E.39045
G1 X104.1 Y104.885 E.02958
G1 X104.215 Y104.591 E.01383
G1 X104.35 Y104.361 E.01172
G1 X104.354 Y104.232 E.00566
G1 X104.121 Y103.774 E.02253
G1 X104.055 Y103.545 E.01044
G1 X103.982 Y103.052 E.02188
G1 X103.982 Y74.018 E1.27328
G1 X104.075 Y73.449 E.02532
G1 X104.177 Y73.145 E.01404
G1 X104.307 Y72.904 E.01202
G1 X104.696 Y73.125 F18000
G1 F2400
G1 X104.72 Y73.082 E.00216
G1 X104.906 Y72.863 E.01261
G1 X105.165 Y72.666 E.01428
G1 X105.449 Y72.523 E.01395
G1 X105.62 Y72.469 E.00785
G1 X106.039 Y72.401 E.01858
G1 X113.974 Y72.401 E.34803
G1 X114.149 Y72.418 E.00772
G1 X114.467 Y72.491 E.01431
G1 X114.679 Y72.571 E.00991
G1 X114.889 Y72.691 E.0106
G1 X115.109 Y72.878 E.0127
G1 X115.261 Y73.066 E.01061
G1 X115.412 Y73.338 E.01363
G1 X115.539 Y73.758 E.01922
G1 X115.566 Y73.938 E.00799
G1 X115.57 Y103.063 E1.27732
G1 X115.482 Y103.552 E.02177
G1 X115.399 Y103.779 E.01062
G1 X115.28 Y103.989 E.01056
G1 X115.09 Y104.213 E.01291
G1 X115.06 Y104.323 E.00497
G1 X115.088 Y104.386 E.00304
G1 X115.261 Y104.596 E.01195
G1 X115.412 Y104.868 E.0136
G1 X115.539 Y105.286 E.01916
G1 X115.57 Y105.531 E.01085
G1 X115.57 Y114.463 E.39173
G1 X115.482 Y114.952 E.02177
G1 X115.399 Y115.179 E.01062
G1 X115.28 Y115.389 E.01056
G1 X115.09 Y115.613 E.01291
G1 X115.06 Y115.723 E.00497
G1 X115.088 Y115.786 E.00304
G1 X115.261 Y115.996 E.01195
