; HEADER_BLOCK_START
; generated by AnycubicSlicerNext 1.3.9.3 on 2026-02-23 at 18:43:54
; total layer number: 255
; filament_density: 1.24
; filament_diameter: 1.75
; max_z_height: 51.04
; exclude_object: 0
; model_instances: 1
; source_info: {"models":[{"file_source":0,"mo_file_id":-1,"name":"newEndX.stl_id_0_copy_0"}],"models_from":0,"plate_index":1,"slice_paras_process":2,"software_version":"AnycubicSlicerNext 1.3.9.3 20260131154219"}
; paint_info = [{"material_type":"PLA","paint_color":[105,164,255],"paint_index":0}]
; project_info = {"flush_multiplier":1.0,"flush_volumes_chan_multipliers":[1.0,1.0,1.0,1.0],"flush_volumes_matrix":[0.0],"flush_volumes_vector":[140.0,140.0]}
; flush_multiplier_calculate_by_acnext: 1
; test_mode: 0
; HEADER_BLOCK_END

; THUMBNAIL_BLOCK_START
; THUMBNAIL_BLOCK_END

; external perimeters extrusion width = 0.42mm
; perimeters extrusion width = 0.45mm
; infill extrusion width = 0.45mm
; solid infill extrusion width = 0.42mm
; top infill extrusion width = 0.42mm
; first layer extrusion width = 0.50mm

; EXECUTABLE_BLOCK_START
M201 X2000 Y2000 Z800 E2000
M203 X300 Y300 Z8 E100
M204 P2000 R2000 T2000
M205 X10.00 Y10.00 Z2.00 E5.00
;TYPE:Custom
G90 ; use absolute coordinates
M83 ; extruder relative mode
M104 S220 ; set extruder temp
M140 S60 ; set bed temp
M190 S60 ; wait for bed temp
M109 S220 ; wait for extruder temp
G28                                        ; move X/Y/Z to min endstops
G1 Z0.28                                   ; lift nozzle a bit 
G92 E0 
G1 Y3 F1800                                    ; zero the extruded length 
G1 X60  E25 F500                       ; Extrude 25mm of filament in a 5cm line. 
G92 E0                                     ; zero the extruded length again 
G1 E-2 F500                                ; Retract a little 
G1 X70 F4000                              ; Quickly wipe away from the filament line
M117
G90
G21
M83 ; use relative distances for extrusion
; EXECUTABLE_BLOCK_HEAD
; filament start gcode
M75 ; The first extruder is ready.
M106 S0
;LAYER_CHANGE
;Z:0.24
;HEIGHT:0.24
; BEFORE_LAYER_CHANGE 0 @ 0.24mm
G92 E0
; AFTER_LAYER_CHANGE 0 @ 0.24mm
M204 S500
; printing object "newEndX.stl" id:0 copy 0
G1 E-.8 F3600
G1 X69.792 Y96.731 F18000
G1 Z.24
G1 E.8 F3600
;TYPE:Brim
;WIDTH:0.5
G1 F2400
G1 X70.317 Y96.372 E.02788
G1 X70.889 Y96.095 E.02788
G1 X71.496 Y95.907 E.02788
G1 X72.129 Y95.81 E.02806
G1 X72.458 Y95.797 E.01444
G1 X96.343 Y95.797 E1.04754
G1 X96.986 Y95.845 E.02825
G1 X97.606 Y95.987 E.02788
G1 X98.197 Y96.218 E.02788
G1 X98.748 Y96.536 E.02788
G1 X99.246 Y96.932 E.02788
G1 X99.679 Y97.397 E.02788
G1 X100.038 Y97.922 E.02788
G1 X100.314 Y98.494 E.02788
G1 X100.503 Y99.101 E.02788
G1 X100.6 Y99.733 E.02806
G1 X100.613 Y100.062 E.01444
G1 X100.613 Y115.573 E.68024
G1 X100.661 Y115.712 E.00648
G1 X100.837 Y115.797 E.00855
G1 X124.173 Y115.797 E1.02344
G1 X124.313 Y115.749 E.00648
G1 X124.398 Y115.573 E.00855
G1 X124.398 Y100.066 E.68006
G1 X124.446 Y99.424 E.02825
G1 X124.587 Y98.804 E.02788
G1 X124.819 Y98.212 E.02788
G1 X125.136 Y97.662 E.02788
G1 X125.532 Y97.164 E.02788
G1 X125.997 Y96.731 E.02788
G1 X126.522 Y96.372 E.02788
G1 X127.094 Y96.095 E.02788
G1 X127.701 Y95.907 E.02788
G1 X128.334 Y95.81 E.02806
G1 X128.663 Y95.797 E.01444
G1 X152.445 Y95.797 E1.043
G1 X153.087 Y95.845 E.02825
G1 X153.707 Y95.987 E.02788
G1 X154.299 Y96.218 E.02788
G1 X154.85 Y96.536 E.02788
G1 X155.347 Y96.932 E.02788
G1 X155.78 Y97.397 E.02788
G1 X156.139 Y97.922 E.02788
G1 X156.416 Y98.494 E.02788
G1 X156.605 Y99.101 E.02788
G1 X156.701 Y99.733 E.02806
G1 X156.714 Y100.062 E.01444
G1 X156.714 Y160.05 E2.6308
G1 X156.666 Y160.692 E.02825
G1 X156.525 Y161.312 E.02788
G1 X156.293 Y161.904 E.02788
G1 X155.976 Y162.454 E.02788
G1 X155.58 Y162.952 E.02788
G1 X155.114 Y163.385 E.02788
G1 X154.59 Y163.744 E.02788
G1 X154.017 Y164.021 E.02788
G1 X153.41 Y164.209 E.02788
G1 X152.778 Y164.306 E.02806
G1 X152.449 Y164.319 E.01444
G1 X122.462 Y164.319 E1.31512
G1 X121.819 Y164.271 E.02825
G1 X121.2 Y164.129 E.02788
G1 X120.608 Y163.898 E.02788
G1 X120.057 Y163.58 E.02788
G1 X119.56 Y163.184 E.02788
G1 X119.127 Y162.719 E.02788
G1 X118.768 Y162.194 E.02788
G1 X118.491 Y161.622 E.02788
G1 X118.302 Y161.015 E.02788
G1 X118.205 Y160.383 E.02806
G1 X118.193 Y160.054 E.01444
G1 X118.193 Y147.543 E.54867
G1 X118.144 Y147.404 E.00648
G1 X117.968 Y147.319 E.00855
G1 X107.938 Y147.319 E.43988
G1 X107.799 Y147.367 E.00648
G1 X107.714 Y147.543 E.00855
G1 X107.714 Y160.05 E.54849
G1 X107.666 Y160.692 E.02825
G1 X107.525 Y161.312 E.02788
G1 X107.293 Y161.904 E.02788
G1 X106.976 Y162.454 E.02788
G1 X106.58 Y162.952 E.02788
G1 X106.114 Y163.385 E.02788
G1 X105.59 Y163.744 E.02788
G1 X105.017 Y164.021 E.02788
G1 X104.41 Y164.209 E.02788
G1 X103.778 Y164.306 E.02806
G1 X103.449 Y164.319 E.01444
G1 X72.462 Y164.319 E1.35898
G1 X71.819 Y164.271 E.02825
G1 X71.2 Y164.129 E.02788
G1 X70.608 Y163.898 E.02788
G1 X70.057 Y163.58 E.02788
G1 X69.56 Y163.184 E.02788
G1 X69.127 Y162.719 E.02788
G1 X68.768 Y162.194 E.02788
G1 X68.491 Y161.622 E.02788
G1 X68.302 Y161.015 E.02788
G1 X68.205 Y160.383 E.02806
G1 X68.193 Y160.054 E.01444
G1 X68.193 Y100.066 E2.63081
G1 X68.241 Y99.424 E.02825
G1 X68.382 Y98.804 E.02788
G1 X68.614 Y98.212 E.02788
G1 X68.931 Y97.662 E.02788
G1 X69.327 Y97.164 E.02788
G1 X69.763 Y96.758 E.02612
G1 X70.069 Y97.089 F18000
G1 F2400
G1 X70.082 Y97.077 E.00077
G1 X70.552 Y96.757 E.02493
G1 X71.064 Y96.511 E.02493
G1 X71.607 Y96.344 E.02493
G1 X72.184 Y96.257 E.02558
G1 X96.322 Y96.246 E1.05858
G1 X96.909 Y96.289 E.02582
G1 X97.483 Y96.42 E.02581
G1 X98.011 Y96.629 E.02493
G1 X98.503 Y96.914 E.02493
G1 X98.947 Y97.269 E.02493
G1 X99.333 Y97.686 E.02493
G1 X99.653 Y98.156 E.02493
G1 X99.899 Y98.669 E.02493
G1 X100.066 Y99.212 E.02493
G1 X100.152 Y99.768 E.02469
G1 X100.164 Y115.562 E.69263
G1 X100.233 Y115.847 E.01287
G1 X100.336 Y116.018 E.00874
G1 X100.477 Y116.122 E.0077
G1 X100.628 Y116.195 E.00734
G1 X100.852 Y116.246 E.01008
G1 X124.162 Y116.246 E1.02228
G1 X124.447 Y116.177 E.01287
G1 X124.618 Y116.074 E.00874
G1 X124.722 Y115.932 E.0077
G1 X124.795 Y115.782 E.00734
G1 X124.846 Y115.558 E.01008
G1 X124.846 Y100.088 E.67844
G1 X124.89 Y99.501 E.02582
G1 X125.02 Y98.927 E.02581
G1 X125.22 Y98.417 E.02405
G1 X125.503 Y97.923 E.02493
G1 X125.856 Y97.478 E.02493
G1 X126.286 Y97.077 E.02581
G1 X126.756 Y96.757 E.02493
G1 X127.269 Y96.511 E.02493
G1 X127.812 Y96.344 E.02493
G1 X128.369 Y96.258 E.02469
G1 X128.669 Y96.246 E.01316
G1 X152.433 Y96.246 E1.04222
G1 X153.03 Y96.292 E.02626
G1 X153.584 Y96.42 E.02493
G1 X154.095 Y96.62 E.02405
G1 X154.588 Y96.903 E.02493
G1 X155.048 Y97.269 E.02581
G1 X155.435 Y97.686 E.02493
G1 X155.744 Y98.139 E.02405
G1 X155.993 Y98.65 E.02493
G1 X156.168 Y99.212 E.02581
G1 X156.253 Y99.768 E.02469
G1 X156.265 Y100.068 E.01317
G1 X156.266 Y160.028 E2.62958
G1 X156.219 Y160.635 E.0267
G1 X156.091 Y161.189 E.02493
G1 X155.891 Y161.699 E.02405
G1 X155.597 Y162.209 E.02581
G1 X155.242 Y162.653 E.02493
G1 X154.825 Y163.039 E.02493
G1 X154.355 Y163.359 E.02493
G1 X153.843 Y163.605 E.02493
G1 X153.299 Y163.772 E.02493
G1 X152.743 Y163.858 E.02469
G1 X152.438 Y163.87 E.01339
G1 X122.484 Y163.87 E1.31367
G1 X121.877 Y163.824 E.0267
G1 X121.323 Y163.696 E.02493
G1 X120.812 Y163.496 E.02405
G1 X120.302 Y163.202 E.02581
G1 X119.858 Y162.847 E.02493
G1 X119.472 Y162.43 E.02493
G1 X119.162 Y161.977 E.02405
G1 X118.914 Y161.466 E.02493
G1 X118.739 Y160.904 E.02581
G1 X118.654 Y160.347 E.02469
G1 X118.641 Y160.042 E.01339
G1 X118.641 Y147.554 E.54768
G1 X118.572 Y147.269 E.01287
G1 X118.469 Y147.098 E.00874
G1 X118.328 Y146.994 E.0077
G1 X118.177 Y146.921 E.00734
G1 X117.953 Y146.87 E.01007
G1 X107.95 Y146.87 E.43872
G1 X107.664 Y146.939 E.01287
G1 X107.494 Y147.042 E.00874
G1 X107.39 Y147.183 E.0077
G1 X107.317 Y147.334 E.00734
G1 X107.266 Y147.558 E.01007
G1 X107.266 Y160.028 E.54687
G1 X107.219 Y160.635 E.0267
G1 X107.091 Y161.189 E.02493
G1 X106.891 Y161.699 E.02405
G1 X106.609 Y162.193 E.02493
G1 X106.256 Y162.638 E.02493
G1 X105.841 Y163.027 E.02493
G1 X105.372 Y163.349 E.02493
G1 X104.843 Y163.605 E.02581
G1 X104.299 Y163.772 E.02493
G1 X103.743 Y163.858 E.02469
G1 X103.438 Y163.87 E.01339
G1 X72.484 Y163.87 E1.35753
G1 X71.877 Y163.824 E.0267
G1 X71.323 Y163.696 E.02493
G1 X70.812 Y163.496 E.02405
G1 X70.302 Y163.202 E.02581
G1 X69.858 Y162.847 E.02493
G1 X69.472 Y162.43 E.02493
G1 X69.152 Y161.96 E.02493
G1 X68.906 Y161.447 E.02493
G1 X68.739 Y160.904 E.02493
G1 X68.654 Y160.347 E.02469
G1 X68.641 Y160.042 E.01339
G1 X68.641 Y100.088 E2.62936
G1 X68.688 Y99.481 E.0267
G1 X68.815 Y98.927 E.02493
G1 X69.015 Y98.417 E.02405
G1 X69.309 Y97.907 E.02581
G1 X69.664 Y97.463 E.02493
G1 X70.039 Y97.116 E.0224
G1 X70.344 Y97.447 F18000
G1 F2400
G1 X70.37 Y97.423 E.00155
G1 X70.785 Y97.142 E.02198
G1 X71.238 Y96.927 E.02198
G1 X71.717 Y96.781 E.02198
G1 X72.228 Y96.705 E.02264
G1 X96.31 Y96.695 E1.05616
G1 X96.832 Y96.733 E.02295
G1 X97.34 Y96.847 E.02282
G1 X97.806 Y97.03 E.02196
G1 X98.257 Y97.291 E.02286
G1 X98.647 Y97.606 E.02198
G1 X98.987 Y97.975 E.02198
G1 X99.257 Y98.372 E.0211
G1 X99.476 Y98.824 E.02198
G1 X99.629 Y99.322 E.02288
G1 X99.703 Y99.813 E.02177
G1 X99.716 Y115.549 E.69011
G1 X99.796 Y115.945 E.01772
G1 X99.854 Y116.087 E.00677
G1 X99.945 Y116.238 E.00771
G1 X100.081 Y116.386 E.00881
G1 X100.203 Y116.477 E.00668
G1 X100.424 Y116.594 E.01096
G1 X100.747 Y116.682 E.01469
G1 X100.86 Y116.694 E.00496
G1 X124.148 Y116.694 E1.02136
G1 X124.545 Y116.614 E.01774
G1 X124.688 Y116.555 E.00677
G1 X124.838 Y116.465 E.00771
G1 X124.985 Y116.331 E.00871
G1 X125.128 Y116.121 E.01114
G1 X125.234 Y115.873 E.01183
G1 X125.295 Y115.545 E.01461
G1 X125.295 Y100.11 E.67695
G1 X125.334 Y99.578 E.02339
G1 X125.448 Y99.069 E.02286
G1 X125.622 Y98.62 E.02114
G1 X125.87 Y98.184 E.022
G1 X126.18 Y97.791 E.02195
G1 X126.575 Y97.423 E.0237
G1 X126.99 Y97.142 E.02195
G1 X127.442 Y96.927 E.02198
G1 X127.922 Y96.78 E.022
G1 X128.405 Y96.707 E.0214
G1 X128.681 Y96.694 E.01211
G1 X152.411 Y96.695 E1.04071
G1 X152.972 Y96.739 E.02469
G1 X153.442 Y96.847 E.02114
G1 X153.891 Y97.022 E.02116
G1 X154.343 Y97.281 E.02286
G1 X154.735 Y97.592 E.02191
G1 X155.076 Y97.959 E.022
G1 X155.36 Y98.374 E.02202
G1 X155.578 Y98.825 E.022
G1 X155.731 Y99.323 E.02283
G1 X155.805 Y99.804 E.02137
G1 X155.817 Y100.081 E.01212
G1 X155.817 Y160.005 E2.62807
G1 X155.772 Y160.577 E.02513
G1 X155.664 Y161.046 E.02113
G1 X155.49 Y161.495 E.02112
G1 X155.219 Y161.964 E.02372
G1 X154.906 Y162.354 E.02195
G1 X154.552 Y162.68 E.0211
G1 X154.139 Y162.964 E.02198
G1 X153.669 Y163.189 E.02286
G1 X153.189 Y163.336 E.022
G1 X152.707 Y163.409 E.0214
G1 X152.426 Y163.422 E.01234
G1 X122.506 Y163.422 E1.31217
G1 X121.935 Y163.377 E.02513
G1 X121.465 Y163.269 E.02113
G1 X121.016 Y163.094 E.02112
G1 X120.548 Y162.824 E.02372
G1 X120.158 Y162.51 E.02195
G1 X119.83 Y162.157 E.02114
G1 X119.557 Y161.759 E.02116
G1 X119.336 Y161.31 E.02197
G1 X119.176 Y160.793 E.02372
G1 X119.102 Y160.312 E.02136
G1 X119.09 Y160.03 E.01234
G1 X119.09 Y147.568 E.54657
G1 X119.01 Y147.171 E.01774
G1 X118.951 Y147.029 E.00677
G1 X118.86 Y146.878 E.00771
G1 X118.725 Y146.729 E.00881
G1 X118.602 Y146.639 E.00668
G1 X118.377 Y146.52 E.01118
G1 X118.272 Y146.483 E.00485
G1 X117.941 Y146.422 E.01479
G1 X107.963 Y146.422 E.43758
G1 X107.567 Y146.502 E.01774
G1 X107.424 Y146.561 E.00677
G1 X107.273 Y146.651 E.00771
G1 X107.125 Y146.787 E.00881
G1 X107.035 Y146.909 E.00668
G1 X106.915 Y147.135 E.01118
G1 X106.879 Y147.239 E.00485
G1 X106.817 Y147.571 E.01479
G1 X106.817 Y160.005 E.54535
G1 X106.775 Y160.557 E.02425
G1 X106.664 Y161.046 E.02201
G1 X106.489 Y161.496 E.02116
G1 X106.241 Y161.932 E.022
G1 X105.931 Y162.326 E.02198
G1 X105.566 Y162.669 E.02198
G1 X105.155 Y162.954 E.02195
G1 X104.668 Y163.19 E.0237
G1 X104.189 Y163.336 E.02197
G1 X103.707 Y163.409 E.0214
G1 X103.426 Y163.422 E.01234
G1 X72.506 Y163.422 E1.35602
G1 X71.935 Y163.377 E.02513
G1 X71.465 Y163.269 E.02113
G1 X71.016 Y163.094 E.02112
G1 X70.548 Y162.824 E.02372
G1 X70.158 Y162.51 E.02195
G1 X69.831 Y162.157 E.0211
G1 X69.548 Y161.744 E.02198
G1 X69.322 Y161.274 E.02286
G1 X69.176 Y160.794 E.022
G1 X69.102 Y160.312 E.0214
G1 X69.09 Y160.03 E.01234
G1 X69.09 Y100.11 E2.62785
G1 X69.135 Y99.539 E.02513
G1 X69.243 Y99.07 E.02113
G1 X69.417 Y98.621 E.02112
G1 X69.687 Y98.152 E.02372
G1 X70.001 Y97.762 E.02195
G1 X70.314 Y97.474 E.01868
G1 X70.618 Y97.806 F18000
G1 F2400
G1 X70.657 Y97.77 E.00234
G1 X71.018 Y97.528 E.01903
G1 X71.41 Y97.343 E.01903
G1 X71.826 Y97.218 E.01903
G1 X72.271 Y97.154 E.01972
G1 X96.289 Y97.143 E1.05333
G1 X96.775 Y97.18 E.02141
G1 X97.218 Y97.281 E.01989
G1 X97.62 Y97.44 E.01896
G1 X97.994 Y97.657 E.01896
G1 X98.332 Y97.928 E.01901
G1 X98.628 Y98.247 E.01907
G1 X98.872 Y98.606 E.01908
G1 X99.06 Y98.998 E.01905
G1 X99.188 Y99.412 E.01901
G1 X99.253 Y99.837 E.01883
G1 X99.267 Y115.537 E.68856
G1 X99.354 Y116.023 E.02166
G1 X99.475 Y116.326 E.0143
G1 X99.621 Y116.548 E.01165
G1 X99.742 Y116.681 E.00789
G1 X99.931 Y116.833 E.01061
G1 X100.32 Y117.03 E.01913
G1 X100.62 Y117.112 E.01366
G1 X100.868 Y117.143 E.01095
G1 X124.137 Y117.143 E1.02047
G1 X124.625 Y117.055 E.02177
G1 X124.853 Y116.972 E.01062
G1 X125.062 Y116.853 E.01056
G1 X125.283 Y116.666 E.01271
G1 X125.358 Y116.579 E.00503
G1 X125.544 Y116.288 E.01518
G1 X125.677 Y115.943 E.01619
G1 X125.733 Y115.64 E.01353
G1 X125.743 Y100.121 E.68058
G1 X125.781 Y99.634 E.02142
G1 X125.882 Y99.191 E.01993
G1 X126.033 Y98.805 E.01821
G1 X126.239 Y98.444 E.01821
G1 X126.504 Y98.104 E.01893
G1 X126.864 Y97.769 E.02155
G1 X127.222 Y97.528 E.01893
G1 X127.615 Y97.343 E.01904
G1 X128.032 Y97.217 E.01909
G1 X128.441 Y97.155 E.01818
G1 X128.688 Y97.143 E.01081
G1 X152.388 Y97.143 E1.03939
G1 X152.894 Y97.183 E.02225
G1 X153.318 Y97.281 E.01912
G1 X153.706 Y97.433 E.01828
G1 X154.082 Y97.648 E.01899
G1 X154.436 Y97.93 E.01983
G1 X154.731 Y98.249 E.01905
G1 X154.965 Y98.591 E.01818
G1 X155.155 Y98.981 E.01902
G1 X155.294 Y99.433 E.02076
G1 X155.357 Y99.841 E.01811
G1 X155.368 Y100.087 E.01081
G1 X155.369 Y159.983 E2.62676
G1 X155.325 Y160.518 E.02356
G1 X155.236 Y160.904 E.01739
G1 X155.088 Y161.291 E.01817
G1 X154.842 Y161.718 E.02159
G1 X154.57 Y162.053 E.01895
G1 X154.264 Y162.335 E.01822
G1 X153.905 Y162.579 E.01905
G1 X153.496 Y162.773 E.01985
G1 X153.08 Y162.899 E.01905
G1 X152.67 Y162.961 E.01817
G1 X152.413 Y162.973 E.0113
G1 X122.529 Y162.973 E1.3106
G1 X121.993 Y162.93 E.02356
G1 X121.607 Y162.841 E.01739
G1 X121.22 Y162.692 E.01817
G1 X120.794 Y162.446 E.02159
G1 X120.458 Y162.174 E.01895
G1 X120.176 Y161.868 E.01827
G1 X119.941 Y161.523 E.0183
G1 X119.751 Y161.133 E.01901
G1 X119.617 Y160.702 E.01982
G1 X119.55 Y160.275 E.01894
G1 X119.527 Y147.466 E.56176
G1 X119.451 Y147.092 E.01671
G1 X119.368 Y146.864 E.01068
G1 X119.248 Y146.654 E.01056
G1 X119.062 Y146.435 E.01261
G1 X118.803 Y146.238 E.01428
G1 X118.519 Y146.095 E.01395
G1 X118.348 Y146.042 E.00785
G1 X117.93 Y145.973 E.01858
G1 X107.975 Y145.973 E.43658
G1 X107.486 Y146.061 E.02177
G1 X107.261 Y146.143 E.01051
G1 X106.964 Y146.327 E.01533
G1 X106.759 Y146.528 E.0126
G1 X106.635 Y146.706 E.0095
G1 X106.49 Y146.992 E.01407
G1 X106.437 Y147.163 E.00785
G1 X106.369 Y147.581 E.01858
G1 X106.369 Y159.983 E.5439
G1 X106.331 Y160.48 E.02183
G1 X106.236 Y160.905 E.01911
G1 X106.087 Y161.294 E.01826
G1 X105.873 Y161.672 E.01907
G1 X105.606 Y162.014 E.01904
G1 X105.291 Y162.313 E.01903
G1 X104.937 Y162.56 E.01893
G1 X104.494 Y162.774 E.02155
G1 X104.08 Y162.899 E.01899
G1 X103.67 Y162.961 E.01817
G1 X103.413 Y162.973 E.0113
G1 X72.529 Y162.973 E1.35446
G1 X71.993 Y162.93 E.02356
G1 X71.607 Y162.841 E.01739
G1 X71.22 Y162.692 E.01817
G1 X70.794 Y162.446 E.02159
G1 X70.458 Y162.174 E.01895
G1 X70.177 Y161.868 E.01822
G1 X69.933 Y161.509 E.01905
G1 X69.738 Y161.1 E.01985
G1 X69.613 Y160.684 E.01905
G1 X69.55 Y160.275 E.01817
G1 X69.538 Y160.018 E.01129
G1 X69.538 Y100.133 E2.62629
G1 X69.581 Y99.598 E.02356
G1 X69.67 Y99.212 E.01739
