; HEADER_BLOCK_START
; generated by AnycubicSlicerNext 1.3.9.3 on 2026-02-23 at 18:46:55
; total layer number: 150
; filament_density: 1.24
; filament_diameter: 1.75
; max_z_height: 30.04
; exclude_object: 0
; model_instances: 1
; source_info: {"models":[{"file_source":0,"mo_file_id":-1,"name":"Pen_Holder.stl_id_0_copy_0"}],"models_from":0,"plate_index":1,"slice_paras_process":1,"software_version":"AnycubicSlicerNext 1.3.9.3 20260131154219"}
; paint_info = [{"material_type":"PLA","paint_color":[105,164,255],"paint_index":0}]
; project_info = {"flush_multiplier":1.0,"flush_volumes_chan_multipliers":[1.0,1.0,1.0,1.0],"flush_volumes_matrix":[0.0],"flush_volumes_vector":[140.0,140.0]}
; flush_multiplier_calculate_by_acnext: 1
; test_mode: 0
; HEADER_BLOCK_END

; THUMBNAIL_BLOCK_START
; THUMBNAIL_BLOCK_END

; external perimeters extrusion width = 0.42mm
; perimeters extrusion width = 0.45mm
; infill extrusion width = 0.45mm
; solid infill extrusion width = 0.42mm
; top infill extrusion width = 0.42mm
; support material extrusion width = 0.40mm
; first layer extrusion width = 0.50mm

; EXECUTABLE_BLOCK_START
M201 X2000 Y2000 Z800 E2000
M203 X300 Y300 Z8 E100
M204 P2000 R2000 T2000
M205 X10.00 Y10.00 Z2.00 E5.00
;TYPE:Custom
G90 ; use absolute coordinates
M83 ; extruder relative mode
M104 S220 ; set extruder temp
M140 S60 ; set bed temp
M190 S60 ; wait for bed temp
M109 S220 ; wait for extruder temp
G28                                        ; move X/Y/Z to min endstops
G1 Z0.28                                   ; lift nozzle a bit 
G92 E0 
G1 Y3 F1800                                    ; zero the extruded length 
G1 X60  E25 F500                       ; Extrude 25mm of filament in a 5cm line. 
G92 E0                                     ; zero the extruded length again 
G1 E-2 F500                                ; Retract a little 
G1 X70 F4000                              ; Quickly wipe away from the filament line
M117
G90
G21
M83 ; use relative distances for extrusion
; EXECUTABLE_BLOCK_HEAD
; filament start gcode
M75 ; The first extruder is ready.
M106 S0
;LAYER_CHANGE
;Z:0.24
;HEIGHT:0.24
; BEFORE_LAYER_CHANGE 0 @ 0.24mm
G92 E0
; AFTER_LAYER_CHANGE 0 @ 0.24mm
M204 S500
; printing object "Pen_Holder.stl" id:0 copy 0
G1 E-.8 F3600
G1 X106.64 Y85.941 F18000
G1 Z.24
G1 E.8 F3600
;TYPE:Support
;WIDTH:0.5
G1 F2400
G1 X107.535 Y86.275 E.0419
G1 X108.352 Y86.769 E.04189
G1 X109.057 Y87.404 E.04161
G1 X109.364 Y87.8 E.02196
G1 X109.644 Y88.174 E.02053
G1 X110.068 Y89.023 E.04162
G1 X110.328 Y89.944 E.04197
G1 X110.411 Y90.899 E.042
G1 X110.314 Y91.852 E.04204
G1 X110.039 Y92.772 E.04208
G1 X109.597 Y93.623 E.0421
G1 X109.064 Y94.3 E.03778
G1 X101.574 Y94.3 E.32848
G1 X101.4 Y94.127 E.01077
G1 X100.865 Y93.35 E.04135
G1 X100.484 Y92.489 E.04131
G1 X100.277 Y91.615 E.03938
G1 X100.233 Y91.154 E.02033
G1 X100.228 Y90.643 E.0224
G1 X100.269 Y90.187 E.02005
G1 X100.357 Y89.706 E.02148
G1 X100.486 Y89.247 E.02091
G1 X100.659 Y88.808 E.02067
G1 X100.877 Y88.365 E.02166
G1 X101.122 Y87.98 E.01999
G1 X101.448 Y87.546 E.02383
G1 X102.115 Y86.895 E.04086
G1 X102.917 Y86.365 E.04218
G1 X103.803 Y85.995 E.0421
G1 X104.741 Y85.798 E.04202
G1 X105.697 Y85.78 E.04197
G1 X106.573 Y85.93 E.03897
G1 X109.572 Y93.234 F18000
G1 F2400
G1 X109.572 Y88.932 E.18866
G1 X109.299 Y88.387 E.02672
G1 X109.073 Y88.085 E.01654
G1 X109.073 Y93.636 E.24342
G1 X108.868 Y93.896 E.01455
G1 X108.575 Y93.896 E.01285
G1 X108.575 Y87.513 E.27996
G1 X108.11 Y87.095 E.02741
G1 X108.077 Y87.075 E.00172
G1 X108.077 Y93.896 E.29917
G1 X107.578 Y93.896 E.02185
G1 X107.578 Y86.773 E.3124
G1 X107.358 Y86.64 E.01129
G1 X107.08 Y86.536 E.01302
G1 X107.08 Y93.896 E.3228
G1 X106.582 Y93.896 E.02185
G1 X106.582 Y86.35 E.33094
G1 X106.534 Y86.333 E.00222
G1 X106.083 Y86.256 E.02006
G1 X106.083 Y93.896 E.3351
G1 X105.585 Y93.896 E.02185
G1 X105.585 Y86.186 E.33815
G1 X105.087 Y86.195 E.02186
G1 X105.087 Y93.896 E.33773
G1 X104.588 Y93.896 E.02185
G1 X104.588 Y86.243 E.33567
G1 X104.09 Y86.347 E.02233
G1 X104.09 Y93.896 E.33108
G1 X103.592 Y93.896 E.02185
G1 X103.592 Y86.52 E.32348
G1 X103.108 Y86.723 E.023
G1 X103.093 Y86.732 E.00075
G1 X103.093 Y93.896 E.3142
G1 X102.595 Y93.896 E.02185
G1 X102.595 Y87.061 E.29975
G1 X102.369 Y87.211 E.01188
G1 X102.097 Y87.477 E.0167
G1 X102.097 Y93.896 E.28154
G1 X101.74 Y93.896 E.01563
G1 X101.711 Y93.867 E.00182
G1 X101.598 Y93.704 E.0087
G1 X101.598 Y88.018 E.24937
G1 X101.454 Y88.21 E.01056
G1 X101.23 Y88.563 E.01835
G1 X101.1 Y88.826 E.01283
G1 X101.1 Y93.335 E.19778
G1 E-.8 F3600
G1 X102.74 Y112.508 F18000
G1 E.8 F3600
G1 F2400
G1 X102.776 Y112.583 E.00364
G1 X103.276 Y112.51 E.02215
G1 X103.673 Y112.51 E.0174
G1 X104.004 Y112.599 E.01506
G1 X104.254 Y112.694 E.01171
G1 X104.743 Y112.563 E.02222
G1 X105.149 Y112.514 E.01792
G1 X105.568 Y112.514 E.0184
G1 X106.103 Y112.706 E.0249
G1 X106.212 Y112.631 E.00582
G1 X106.98 Y112.518 E.03402
G1 X107.394 Y112.518 E.01818
G1 X107.555 Y112.576 E.0075
G1 X107.627 Y112.519 E.00402
G1 X108.456 Y112.521 E.0364
G1 X111.87 Y112.517 E.14972
G1 X112.074 Y112.772 E.01434
G1 X112.371 Y112.945 E.01506
G1 X112.823 Y112.633 E.02409
G1 X113.625 Y112.515 E.03558
G1 X113.987 Y112.514 E.01585
G1 X114.184 Y112.585 E.0092
G1 X114.184 Y117.92 E.23397
G1 X114.308 Y118.131 E.01074
G1 X114.727 Y118.364 E.02101
G1 X114.636 Y118.581 E.01032
G1 X114.695 Y119.141 E.02469
G1 X114.607 Y120.059 E.04045
G1 X114.339 Y120.941 E.04042
G1 X113.901 Y121.752 E.0404
G1 X113.32 Y122.449 E.03982
G1 X112.997 Y122.716 E.01838
G1 X112.587 Y123.039 E.02287
G1 X111.778 Y123.457 E.03994
G1 X110.913 Y123.704 E.03945
G1 X110.442 Y123.752 E.02075
G1 X109.959 Y123.779 E.02121
G1 X109.671 Y123.744 E.01275
G1 X109.516 Y123.867 E.00865
G1 X108.691 Y124.28 E.04048
G1 X107.798 Y124.515 E.04049
G1 X107.557 Y124.527 E.01059
G1 X107.472 Y124.594 E.00475
G1 X106.671 Y125.019 E.03976
G1 X105.786 Y125.28 E.04046
G1 X104.865 Y125.361 E.04055
G1 X103.944 Y125.256 E.04067
G1 X103.059 Y124.967 E.04081
G1 X102.247 Y124.505 E.04099
G1 X101.99 Y124.279 E.01501
G1 X101.595 Y124.407 E.01818
G1 X100.683 Y124.511 E.04029
G1 X99.765 Y124.433 E.04039
G1 X98.878 Y124.173 E.04054
G1 X98.057 Y123.738 E.04074
G1 X97.337 Y123.143 E.04098
G1 X96.747 Y122.409 E.04128
G1 X96.57 Y122.061 E.01714
G1 X95.631 Y121.931 E.04157
G1 X94.72 Y121.631 E.04205
G1 X93.878 Y121.173 E.04203
G1 X93.133 Y120.572 E.042
G1 X92.507 Y119.848 E.04196
G1 X92.022 Y119.025 E.04193
G1 X91.692 Y118.129 E.04188
G1 X91.527 Y117.189 E.04184
G1 X91.533 Y116.236 E.04179
G1 X91.708 Y115.3 E.04175
G1 X92.047 Y114.412 E.0417
G1 X92.538 Y113.598 E.04167
G1 X93.165 Y112.885 E.04164
G1 X93.619 Y112.525 E.02545
G1 X98.872 Y112.5 E.23038
G1 X102.673 Y112.508 E.16669
G1 X114.057 Y121.039 F18000
G1 F2400
G1 X114.057 Y118.453 E.11339
G1 X114.016 Y118.431 E.00203
G1 X113.781 Y118.03 E.02038
G1 X113.781 Y112.918 E.22418
G1 X113.655 Y112.918 E.0055
G1 X113.558 Y112.933 E.0043
G1 X113.558 Y121.533 E.37715
G1 X113.06 Y122.131 E.03414
G1 X113.06 Y113.006 E.40016
G1 X112.975 Y113.019 E.00378
G1 X112.562 Y113.304 E.02201
G1 X112.562 Y122.545 E.40528
G1 X112.367 Y122.698 E.01084
G1 X112.063 Y122.855 E.01502
G1 X112.063 Y113.233 E.42198
G1 X111.806 Y113.083 E.01307
G1 X111.676 Y112.921 E.00912
G1 X111.565 Y112.921 E.00487
G1 X111.565 Y123.098 E.44634
G1 X111.067 Y123.24 E.02273
G1 X111.067 Y112.921 E.45255
G1 X110.568 Y112.922 E.02185
G1 X110.568 Y123.333 E.45659
G1 X110.41 Y123.349 E.00696
G1 X110.07 Y123.369 E.01495
G1 X110.07 Y112.923 E.45812
G1 X109.572 Y112.923 E.02185
G1 X109.572 Y123.326 E.45622
G1 X109.552 Y123.323 E.00087
G1 X109.298 Y123.525 E.0142
G1 X109.073 Y123.637 E.01103
G1 X109.073 Y112.924 E.46986
G1 X108.575 Y112.924 E.02185
G1 X108.575 Y123.887 E.48078
G1 X108.548 Y123.9 E.00133
G1 X108.077 Y124.024 E.02137
G1 X108.077 Y112.924 E.48683
G1 X107.768 Y112.923 E.01356
G1 X107.631 Y113.032 E.00768
G1 X107.578 Y113.013 E.00244
G1 X107.578 Y124.122 E.48717
G1 X107.407 Y124.13 E.0075
G1 X107.25 Y124.255 E.00879
G1 X107.08 Y124.345 E.00845
G1 X107.08 Y112.921 E.501
G1 X107.009 Y112.921 E.00313
G1 X106.582 Y112.984 E.01893
G1 X106.582 Y124.609 E.50983
G1 X106.518 Y124.643 E.00317
G1 X106.083 Y124.772 E.01987
G1 X106.083 Y113.128 E.51065
G1 X105.585 Y112.949 E.02322
G1 X105.585 Y124.893 E.5238
G1 X105.087 Y124.936 E.02194
G1 X105.087 Y112.928 E.52665
G1 X104.82 Y112.96 E.01177
G1 X104.588 Y113.022 E.01053
G1 X104.588 Y124.923 E.52192
G1 X104.09 Y124.866 E.022
G1 X104.09 Y113.063 E.51762
G1 X103.88 Y112.984 E.00984
G1 X103.619 Y112.914 E.01186
G1 X103.592 Y112.914 E.0012
G1 X103.592 Y124.716 E.51761
G1 X103.223 Y124.596 E.017
G1 X103.093 Y124.522 E.00655
G1 X103.093 Y112.944 E.50775
G1 X102.595 Y113.018 E.02209
G1 X102.595 Y124.239 E.49209
G1 X102.482 Y124.174 E.00569
G1 X102.097 Y123.836 E.0225
G1 X102.097 Y112.911 E.47913
G1 X101.598 Y112.91 E.02185
G1 X101.598 Y123.981 E.48556
G1 X101.509 Y124.01 E.00411
G1 X101.1 Y124.057 E.01806
G1 X101.1 Y112.909 E.48893
G1 X100.602 Y112.907 E.02185
G1 X100.602 Y124.099 E.49083
G1 X100.103 Y124.057 E.02193
G1 X100.103 Y112.906 E.48902
G1 X99.605 Y112.905 E.02185
G1 X99.605 Y123.966 E.48506
G1 X99.107 Y123.819 E.02278
G1 X99.107 Y112.904 E.47869
G1 X98.873 Y112.904 E.01027
G1 X98.608 Y112.905 E.01159
G1 X98.608 Y123.573 E.46787
G1 X98.282 Y123.401 E.01618
G1 X98.11 Y123.258 E.0098
G1 X98.11 Y112.907 E.45395
G1 X97.612 Y112.91 E.02185
G1 X97.612 Y122.841 E.43556
G1 X97.113 Y122.22 E.03491
G1 X97.113 Y112.912 E.40824
G1 X96.615 Y112.914 E.02185
G1 X96.615 Y121.66 E.38354
G1 X96.117 Y121.591 E.02206
G1 X96.117 Y112.917 E.38041
G1 X95.618 Y112.919 E.02185
G1 X95.618 Y121.502 E.37642
G1 X95.12 Y121.338 E.02301
G1 X95.12 Y112.921 E.36912
G1 X94.622 Y112.924 E.02185
G1 X94.622 Y121.118 E.35939
G1 X94.123 Y120.847 E.02488
G1 X94.123 Y112.926 E.3474
G1 X93.761 Y112.928 E.0159
G1 X93.625 Y113.035 E.0076
G1 X93.625 Y120.451 E.32522
G1 X93.414 Y120.281 E.01187
G1 X93.127 Y119.948 E.01929
G1 X93.127 Y113.54 E.28105
G1 X92.865 Y113.838 E.0174
G1 X92.629 Y114.229 E.02006
G1 X92.629 Y119.259 E.2206
G1 X92.388 Y118.851 E.02077
G1 X92.13 Y118.151 E.03271
G1 X92.13 Y114.76 E.14872
G1 E-.8 F3600
G1 X133.759 Y92.574 F18000
G1 E.8 F3600
G1 F2400
G1 X134.178 Y92.775 E.02037
G1 X134.834 Y93.599 E.04618
G1 X134.863 Y93.726 E.00573
G1 X135.015 Y93.893 E.0099
G1 X135.14 Y94.372 E.02171
G1 X135.315 Y94.65 E.01439
G1 X135.458 Y95.611 E.04263
G1 X135.309 Y96.467 E.03812
G1 X135.075 Y96.873 E.02051
G1 X135.183 Y97.013 E.00777
G1 X135.483 Y97.81 E.03735
G1 X135.528 Y98.708 E.03943
G1 X135.275 Y99.461 E.03484
G1 X135.48 Y100.465 E.04491
G1 X135.41 Y100.806 E.01528
G1 X135.445 Y100.867 E.00309
G1 X135.619 Y101.612 E.03355
G1 X135.596 Y101.962 E.01538
G1 X135.653 Y102.127 E.00766
G1 X135.662 Y102.233 E.00463
G1 X135.846 Y102.627 E.01909
G1 X135.669 Y103.634 E.04483
G1 X135.493 Y104.019 E.0186
G1 X135.295 Y104.335 E.01634
G1 X135.292 Y104.394 E.0026
G1 X135.249 Y104.501 E.00505
G1 X135.449 Y104.942 E.02122
G1 X135.539 Y105.814 E.03846
G1 X135.354 Y106.565 E.03392
G1 X135.449 Y106.775 E.0101
G1 X135.539 Y107.647 E.03847
G1 X135.354 Y108.398 E.03392
G1 X135.449 Y108.608 E.0101
G1 X135.539 Y109.481 E.03847
G1 X135.326 Y110.346 E.03906
G1 X135.222 Y110.502 E.00822
G1 X135.297 Y110.616 E.00599
G1 X135.459 Y111.528 E.04063
G1 X135.31 Y112.495 E.0429
G1 X135.075 Y112.859 E.01903
G1 X134.836 Y113.909 E.04723
G1 X134.179 Y114.733 E.04618
G1 X133.761 Y114.934 E.02037
G1 X133.23 Y115.189 E.02582
G1 X132.177 Y115.189 E.04618
G1 X131.229 Y114.733 E.04618
G1 X131.144 Y114.627 E.00593
G1 X130.585 Y114.213 E.03051
G1 X130.132 Y113.258 E.04635
G1 X130.132 Y113.2 E.00256
G1 X130.815 Y113.2 E.02996
G1 X131.078 Y112.938 E.01628
G1 X131.121 Y105.86 E.31042
G1 X131.111 Y103.75 E.09255
G1 X131.121 Y101.641 E.0925
G1 X131.078 Y94.562 E.31047
G1 X130.815 Y94.3 E.01628
G1 X130.142 Y94.3 E.02949
G1 X130.142 Y94.117 E.00803
G1 X130.699 Y93.183 E.04768
G1 X131.15 Y92.872 E.02401
G1 X131.227 Y92.775 E.00543
G1 X132.176 Y92.318 E.04618
G1 X133.229 Y92.318 E.04618
G1 X133.699 Y92.545 E.02287
G1 X134.986 Y112.625 F18000
G1 F2400
G1 X134.986 Y111.174 E.0636
G1 X134.914 Y110.768 E.01809
G1 X134.738 Y110.5 E.01407
G1 X134.951 Y110.18 E.01686
G1 X134.986 Y110.036 E.00652
G1 X134.986 Y97.636 E.54382
G1 X134.827 Y97.212 E.01987
G1 X134.59 Y96.905 E.01699
G1 X134.924 Y96.328 E.02926
G1 X134.986 Y95.967 E.01606
G1 X134.986 Y95.185 E.03431
G1 X134.928 Y94.793 E.01736
G1 X134.765 Y94.534 E.01341
G1 X134.649 Y94.091 E.0201
G1 X134.493 Y93.919 E.01019
G1 X134.488 Y93.896 E.00104
G1 X134.488 Y113.618 E.86496
G1 X134.463 Y113.73 E.00501
G1 X133.99 Y114.323 E.03327
G1 X133.99 Y93.187 E.92693
G1 X133.92 Y93.099 E.00493
G1 X133.584 Y92.938 E.01633
G1 X133.491 Y92.893 E.00452
G1 X133.491 Y114.616 E.95268
G1 X133.138 Y114.786 E.01719
G1 X132.993 Y114.786 E.00637
G1 X132.993 Y92.722 E.96763
G1 X132.495 Y92.722 E.02185
G1 X132.495 Y114.786 E.96763
G1 X132.269 Y114.786 E.00988
G1 X131.996 Y114.654 E.01329
G1 X131.996 Y92.853 E.95613
G1 X131.498 Y93.093 E.02426
G1 X131.498 Y114.414 E.93508
G1 X131.487 Y114.409 E.00055
G1 X131.427 Y114.334 E.0042
G1 X131 Y114.018 E.0233
G1 X131 Y113.301 E.03145
G1 X131 Y94.199 F18000
G1 F2400
G1 X131 Y93.221 E.0429
G1 E-.8 F3600
G1 X101.166 Y94.526 F18000
G1 E.8 F3600
;TYPE:Brim
G1 F2400
G1 X78.548 Y94.526 E.99197
G1 X78.373 Y94.61 E.0085
G1 X78.323 Y94.749 E.00648
G1 X78.282 Y101.641 E.30225
G1 X78.277 Y112.141 E.46051
G1 X78.362 Y112.317 E.0086
G1 X78.502 Y112.365 E.00648
G1 X93.181 Y112.3 E.64378
G1 X92.849 Y112.568 E.0187
G1 X92.195 Y113.309 E.04339
G1 X91.658 Y114.188 E.04517
G1 X91.269 Y115.208 E.04785
G1 X91.09 Y116.163 E.04263
G1 X91.085 Y116.347 E.00806
G1 X78.505 Y116.402 E.5517
G1 X77.864 Y116.353 E.02822
G1 X77.244 Y116.212 E.02788
G1 X76.652 Y115.979 E.02788
G1 X76.102 Y115.661 E.02788
G1 X75.605 Y115.265 E.02788
G1 X75.172 Y114.799 E.02788
G1 X74.813 Y114.274 E.02788
G1 X74.537 Y113.702 E.02788
G1 X74.349 Y113.095 E.02788
G1 X74.253 Y112.462 E.02806
G1 X74.24 Y112.131 E.01454
G1 X74.246 Y101.614 E.46122
G1 X74.287 Y94.733 E.30181
G1 X74.339 Y94.091 E.02825
G1 X74.484 Y93.472 E.02788
G1 X74.719 Y92.881 E.02788
G1 X75.04 Y92.333 E.02788
G1 X75.439 Y91.838 E.02788
G1 X75.907 Y91.407 E.02788
G1 X76.433 Y91.052 E.02788
G1 X77.007 Y90.778 E.02788
G1 X77.611 Y90.594 E.0277
G1 X78.56 Y90.489 E.04185
G1 X99.792 Y90.489 E.93114
G1 X99.781 Y90.608 E.00525
G1 X99.784 Y91.162 E.02429
G1 X99.831 Y91.665 E.02216
G1 X100.07 Y92.662 E.04492
G1 X100.49 Y93.596 E.04492
G1 X101.036 Y94.39 E.04226
G1 X101.139 Y94.497 E.00651
G1 E-.8 F3600
G1 X100.148 Y93.988 F18000
G1 E.8 F3600
G1 F2400
G1 X100.021 Y94.077 E.0068
G1 X78.563 Y94.077 E.94108
G1 X78.34 Y94.128 E.01001
G1 X78.191 Y94.199 E.00722
G1 X78.033 Y94.32 E.00875
G1 X77.946 Y94.471 E.00763
G1 X77.875 Y94.757 E.01294
G1 X77.833 Y101.638 E.30175
G1 X77.828 Y112.126 E.45996
G1 X77.88 Y112.351 E.01013
G1 X77.953 Y112.501 E.00731
G1 X78.075 Y112.658 E.00874
G1 X78.228 Y112.746 E.00775
G1 X78.515 Y112.814 E.01293
G1 X91.787 Y112.755 E.58207
G1 X91.89 Y112.802 E.00497
G1 X91.921 Y112.911 E.00497
G1 X91.235 Y114.04 E.05793
G1 X90.854 Y115.038 E.04684
G1 X90.703 Y115.793 E.03377
G1 X90.637 Y115.884 E.00497
G1 X90.572 Y115.901 E.00292
G1 X78.516 Y115.953 E.52874
G1 X77.921 Y115.906 E.02617
G1 X77.367 Y115.778 E.02493
G1 X76.839 Y115.569 E.02493
G1 X76.364 Y115.295 E.02405
G1 X75.904 Y114.928 E.02581
G1 X75.518 Y114.51 E.02493
G1 X75.198 Y114.04 E.02493
G1 X74.96 Y113.546 E.02405
G1 X74.786 Y112.984 E.02581
G1 X74.701 Y112.428 E.02469
G1 X74.689 Y112.12 E.01349
G1 X74.694 Y101.616 E.46066
G1 X74.736 Y94.747 E.30126
G1 X74.785 Y94.151 E.02626
G1 X74.916 Y93.598 E.02493
G1 X75.12 Y93.088 E.02405
G1 X75.405 Y92.596 E.02493
G1 X75.774 Y92.138 E.02581
G1 X76.194 Y91.755 E.02493
G1 X76.666 Y91.438 E.02493
G1 X77.161 Y91.202 E.02405
G1 X77.715 Y91.034 E.02538
G1 X78.592 Y90.938 E.03871
G1 X99.201 Y90.938 E.90381
G1 X99.303 Y90.985 E.00497
G1 X99.335 Y91.072 E.00402
G1 X99.397 Y91.779 E.03113
G1 X99.63 Y92.754 E.04399
G1 X100.137 Y93.875 E.05395
G1 X100.144 Y93.948 E.00321
