; HEADER_BLOCK_START
; generated by AnycubicSlicerNext 1.3.9.3 on 2026-02-23 at 18:45:29
; total layer number: 75
; filament_density: 1.24
; filament_diameter: 1.75
; max_z_height: 15.04
; exclude_object: 0
; model_instances: 1
; source_info: {"models":[{"file_source":0,"mo_file_id":-1,"name":"Pen_Carriage.stl_id_0_copy_0"}],"models_from":0,"plate_index":1,"slice_paras_process":2,"software_version":"AnycubicSlicerNext 1.3.9.3 20260131154219"}
; paint_info = [{"material_type":"PLA","paint_color":[105,164,255],"paint_index":0}]
; project_info = {"flush_multiplier":1.0,"flush_volumes_chan_multipliers":[1.0,1.0,1.0,1.0],"flush_volumes_matrix":[0.0],"flush_volumes_vector":[140.0,140.0]}
; flush_multiplier_calculate_by_acnext: 1
; test_mode: 0
; HEADER_BLOCK_END

; THUMBNAIL_BLOCK_START
; THUMBNAIL_BLOCK_END

; external perimeters extrusion width = 0.42mm
; perimeters extrusion width = 0.45mm
; infill extrusion width = 0.45mm
; solid infill extrusion width = 0.42mm
; top infill extrusion width = 0.42mm
; first layer extrusion width = 0.50mm

; EXECUTABLE_BLOCK_START
M201 X2000 Y2000 Z800 E2000
M203 X300 Y300 Z8 E100
M204 P2000 R2000 T2000
M205 X10.00 Y10.00 Z2.00 E5.00
;TYPE:Custom
G90 ; use absolute coordinates
M83 ; extruder relative mode
M104 S220 ; set extruder temp
M140 S60 ; set bed temp
M190 S60 ; wait for bed temp
M109 S220 ; wait for extruder temp
G28                                        ; move X/Y/Z to min endstops
G1 Z0.28                                   ; lift nozzle a bit 
G92 E0 
G1 Y3 F1800                                    ; zero the extruded length 
G1 X60  E25 F500                       ; Extrude 25mm of filament in a 5cm line. 
G92 E0                                     ; zero the extruded length again 
G1 E-2 F500                                ; Retract a little 
G1 X70 F4000                              ; Quickly wipe away from the filament line
M117
G90
G21
M83 ; use relative distances for extrusion
; EXECUTABLE_BLOCK_HEAD
; filament start gcode
M75 ; The first extruder is ready.
M106 S0
;LAYER_CHANGE
;Z:0.24
;HEIGHT:0.24
; BEFORE_LAYER_CHANGE 0 @ 0.24mm
G92 E0
; AFTER_LAYER_CHANGE 0 @ 0.24mm
M204 S500
; printing object "Pen_Carriage.stl" id:0 copy 0
G1 E-.8 F3600
G1 X80.844 Y76.097 F18000
G1 Z.24
G1 E.8 F3600
;TYPE:Brim
;WIDTH:0.5
G1 F2400
G1 X81.311 Y75.665 E.02788
G1 X81.837 Y75.308 E.02788
G1 X82.41 Y75.033 E.02788
G1 X83.014 Y74.847 E.02769
G1 X83.974 Y74.739 E.0424
G1 X136.012 Y74.739 E2.28216
G1 X136.654 Y74.787 E.02825
G1 X137.274 Y74.929 E.02788
G1 X137.866 Y75.16 E.02788
G1 X138.417 Y75.478 E.02788
G1 X138.914 Y75.874 E.02788
G1 X139.347 Y76.339 E.02788
G1 X139.706 Y76.864 E.02788
G1 X139.983 Y77.436 E.02788
G1 X140.17 Y78.039 E.02769
G1 X140.281 Y78.999 E.0424
G1 X140.314 Y89.73 E.47062
G1 X140.301 Y94.506 E.20944
G1 X140.314 Y130.296 E1.56962
G1 X140.281 Y141.005 E.46965
G1 X140.231 Y141.647 E.02825
G1 X140.088 Y142.266 E.02788
G1 X139.854 Y142.858 E.02788
G1 X139.535 Y143.407 E.02788
G1 X139.138 Y143.903 E.02788
G1 X138.671 Y144.335 E.02788
G1 X138.145 Y144.692 E.02788
G1 X137.572 Y144.967 E.02788
G1 X136.968 Y145.153 E.02769
G1 X136.008 Y145.261 E.0424
G1 X83.97 Y145.261 E2.28216
G1 X83.328 Y145.213 E.02825
G1 X82.708 Y145.071 E.02788
G1 X82.116 Y144.84 E.02788
G1 X81.565 Y144.522 E.02788
G1 X81.068 Y144.126 E.02788
G1 X80.635 Y143.661 E.02788
G1 X80.276 Y143.136 E.02788
G1 X79.999 Y142.564 E.02788
G1 X79.812 Y141.961 E.02769
G1 X79.701 Y141.001 E.0424
G1 X79.668 Y130.27 E.47062
G1 X79.681 Y125.494 E.20944
G1 X79.668 Y89.704 E1.56962
G1 X79.701 Y78.995 E.46965
G1 X79.751 Y78.353 E.02825
G1 X79.894 Y77.734 E.02788
G1 X80.128 Y77.142 E.02788
G1 X80.447 Y76.593 E.02788
G1 X80.819 Y76.128 E.02612
G1 X81.17 Y76.41 F18000
G1 F2400
G1 X81.181 Y76.396 E.00077
G1 X81.584 Y76.024 E.02405
G1 X82.07 Y75.693 E.02581
G1 X82.565 Y75.456 E.02405
G1 X83.093 Y75.292 E.02427
G1 X84.007 Y75.188 E.04033
G1 X136 Y75.188 E2.28022
G1 X136.597 Y75.234 E.02626
G1 X137.151 Y75.362 E.02493
G1 X137.662 Y75.562 E.02405
G1 X138.155 Y75.845 E.02493
G1 X138.615 Y76.211 E.02581
G1 X139.001 Y76.628 E.02493
G1 X139.311 Y77.081 E.02405
G1 X139.56 Y77.592 E.02493
G1 X139.731 Y78.144 E.02536
G1 X139.833 Y79.033 E.03923
G1 X139.866 Y89.73 E.46912
G1 X139.852 Y94.506 E.20948
G1 X139.866 Y130.295 E1.56956
G1 X139.833 Y140.982 E.46866
G1 X139.787 Y141.569 E.02582
G1 X139.661 Y142.123 E.02493
G1 X139.444 Y142.67 E.02581
G1 X139.158 Y143.161 E.02493
G1 X138.801 Y143.604 E.02493
G1 X138.398 Y143.976 E.02405
G1 X137.912 Y144.307 E.02581
G1 X137.417 Y144.544 E.02405
G1 X136.889 Y144.708 E.02427
G1 X135.975 Y144.812 E.04033
G1 X83.992 Y144.812 E2.27978
G1 X83.405 Y144.769 E.02582
G1 X82.85 Y144.644 E.02493
G1 X82.32 Y144.438 E.02493
G1 X81.811 Y144.144 E.02581
G1 X81.381 Y143.803 E.02405
G1 X80.993 Y143.387 E.02493
G1 X80.661 Y142.902 E.02581
G1 X80.422 Y142.408 E.02405
G1 X80.256 Y141.88 E.02427
G1 X80.149 Y140.967 E.04033
G1 X80.116 Y130.27 E.46912
G1 X80.13 Y125.494 E.20948
G1 X80.116 Y89.705 E1.56956
G1 X80.149 Y79.018 E.46866
G1 X80.195 Y78.431 E.02582
G1 X80.321 Y77.877 E.02493
G1 X80.538 Y77.33 E.02581
G1 X80.824 Y76.839 E.02493
G1 X81.145 Y76.441 E.02241
G1 X81.494 Y76.722 F18000
G1 F2400
G1 X81.503 Y76.711 E.00065
G1 X81.856 Y76.383 E.02112
G1 X82.304 Y76.079 E.02374
G1 X82.72 Y75.879 E.02026
G1 X83.174 Y75.736 E.02085
G1 X84.04 Y75.636 E.03824
G1 X135.978 Y75.637 E2.27778
G1 X136.519 Y75.678 E.02381
G1 X137.027 Y75.795 E.02288
G1 X137.476 Y75.973 E.02116
G1 X137.893 Y76.212 E.0211
G1 X138.316 Y76.548 E.0237
G1 X138.656 Y76.917 E.02197
G1 X138.927 Y77.316 E.02116
G1 X139.137 Y77.748 E.02109
G1 X139.291 Y78.249 E.02301
G1 X139.384 Y79.067 E.03608
G1 X139.417 Y89.73 E.46763
G1 X139.404 Y94.507 E.20951
G1 X139.417 Y130.295 E1.56951
G1 X139.384 Y140.959 E.46768
G1 X139.343 Y141.491 E.02342
G1 X139.233 Y141.98 E.02196
G1 X139.043 Y142.464 E.02281
G1 X138.781 Y142.914 E.02284
G1 X138.479 Y143.289 E.02114
G1 X138.126 Y143.617 E.02112
G1 X137.678 Y143.921 E.02374
G1 X137.262 Y144.121 E.02026
G1 X136.808 Y144.264 E.02085
G1 X135.942 Y144.364 E.03824
G1 X84.014 Y144.364 E2.27738
G1 X83.481 Y144.325 E.02342
G1 X82.972 Y144.21 E.02287
G1 X82.506 Y144.027 E.02196
G1 X82.072 Y143.777 E.02195
G1 X81.694 Y143.478 E.02114
G1 X81.338 Y143.098 E.02286
G1 X81.056 Y142.684 E.02195
G1 X80.844 Y142.251 E.02114
G1 X80.695 Y141.773 E.02195
G1 X80.598 Y140.932 E.03714
G1 X80.565 Y130.27 E.46759
G1 X80.578 Y125.493 E.20951
G1 X80.565 Y89.705 E1.56951
G1 X80.598 Y79.041 E.46768
G1 X80.639 Y78.509 E.02342
G1 X80.749 Y78.02 E.02196
G1 X80.939 Y77.536 E.02281
G1 X81.201 Y77.086 E.02284
G1 X81.469 Y76.753 E.01874
G1 X81.818 Y77.035 F18000
G1 F2400
G1 X81.826 Y77.025 E.00056
G1 X82.129 Y76.742 E.01817
G1 X82.537 Y76.464 E.02165
G1 X82.894 Y76.294 E.01735
G1 X83.255 Y76.181 E.01659
G1 X84.074 Y76.085 E.03613
G1 X135.955 Y76.085 E2.27533
G1 X136.441 Y76.122 E.02136
G1 X136.903 Y76.228 E.0208
G1 X137.272 Y76.374 E.0174
G1 X137.632 Y76.579 E.01816
G1 X138.017 Y76.885 E.02157
G1 X138.309 Y77.204 E.01896
G1 X138.532 Y77.533 E.01744
G1 X138.714 Y77.904 E.01811
G1 X138.852 Y78.354 E.02064
G1 X138.936 Y79.1 E.03295
G1 X138.969 Y89.729 E.46615
G1 X138.955 Y94.508 E.20955
G1 X138.969 Y130.294 E1.56946
G1 X138.936 Y140.936 E.46671
G1 X138.899 Y141.415 E.02105
G1 X138.799 Y141.857 E.0199
G1 X138.633 Y142.277 E.01979
G1 X138.404 Y142.666 E.01982
G1 X138.156 Y142.975 E.01738
G1 X137.853 Y143.258 E.01818
G1 X137.445 Y143.536 E.02165
G1 X137.088 Y143.706 E.01735
G1 X136.727 Y143.819 E.01659
G1 X135.908 Y143.915 E.03613
G1 X84.035 Y143.915 E2.27497
G1 X83.557 Y143.88 E.02102
G1 X83.094 Y143.776 E.02079
G1 X82.692 Y143.617 E.01898
G1 X82.333 Y143.41 E.01817
G1 X82.007 Y143.154 E.0182
G1 X81.683 Y142.808 E.02077
G1 X81.45 Y142.467 E.01813
G1 X81.267 Y142.094 E.01818
G1 X81.135 Y141.668 E.0196
G1 X81.046 Y140.898 E.03397
G1 X81.013 Y130.271 E.46608
G1 X81.027 Y125.492 E.20955
G1 X81.013 Y89.706 E1.56946
G1 X81.046 Y79.064 E.46671
G1 X81.083 Y78.585 E.02105
G1 X81.183 Y78.143 E.0199
G1 X81.349 Y77.723 E.01979
G1 X81.578 Y77.334 E.01982
G1 X81.793 Y77.066 E.01507
G1 X82.144 Y77.346 F18000
G1 F2400
G1 X82.15 Y77.338 E.00043
G1 X82.419 Y77.087 E.01612
G1 X82.752 Y76.86 E.01769
G1 X83.05 Y76.717 E.0145
G1 X83.362 Y76.62 E.01432
G1 X84.108 Y76.533 E.03292
G1 X135.933 Y76.534 E2.27286
G1 X136.363 Y76.566 E.01891
G1 X136.779 Y76.662 E.01871
G1 X137.086 Y76.784 E.01451
G1 X137.371 Y76.946 E.01437
G1 X137.717 Y77.222 E.0194
G1 X137.961 Y77.491 E.01595
G1 X138.148 Y77.768 E.01463
G1 X138.291 Y78.06 E.01426
G1 X138.412 Y78.458 E.01825
G1 X138.487 Y79.134 E.02982
G1 X138.52 Y89.729 E.46468
G1 X138.507 Y94.508 E.20959
G1 X138.52 Y130.294 E1.56941
G1 X138.487 Y140.913 E.46575
G1 X138.455 Y141.338 E.01868
G1 X138.366 Y141.734 E.01782
G1 X138.224 Y142.088 E.01673
G1 X138.039 Y142.402 E.01597
G1 X137.832 Y142.662 E.01457
G1 X137.563 Y142.913 E.01612
G1 X137.23 Y143.14 E.01769
G1 X136.932 Y143.283 E.0145
G1 X136.62 Y143.38 E.01432
G1 X135.874 Y143.467 E.03293
G1 X84.056 Y143.467 E2.27254
G1 X83.633 Y143.436 E.01861
G1 X83.217 Y143.343 E.01868
G1 X82.879 Y143.207 E.01598
G1 X82.593 Y143.042 E.01448
G1 X82.319 Y142.829 E.01525
G1 X82.028 Y142.518 E.01865
G1 X81.844 Y142.248 E.01436
G1 X81.689 Y141.938 E.01519
G1 X81.574 Y141.562 E.01722
G1 X81.495 Y140.879 E.03016
G1 X81.462 Y130.271 E.46524
G1 X81.475 Y125.492 E.20959
G1 X81.462 Y89.706 E1.56941
G1 X81.495 Y79.087 E.46574
G1 X81.527 Y78.662 E.01868
G1 X81.616 Y78.266 E.01782
G1 X81.758 Y77.912 E.01673
G1 X81.943 Y77.598 E.01597
G1 X82.119 Y77.377 E.01239
G1 X82.475 Y77.665 F18000
G1 F2400
G1 X82.525 Y77.603 E.00351
G1 X82.774 Y77.392 E.01431
G1 X83.105 Y77.2 E.0168
G1 X83.609 Y77.035 E.02323
G1 X84.002 Y76.982 E.0174
G1 X135.973 Y76.982 E2.27924
G1 X136.543 Y77.075 E.02532
G1 X136.841 Y77.175 E.01383
G1 X137.226 Y77.4 E.01952
G1 X137.572 Y77.736 E.02117
G1 X137.729 Y77.972 E.01244
G1 X137.911 Y78.369 E.01916
G1 X138.004 Y78.73 E.01634
G1 X138.039 Y79.032 E.01333
G1 X138.072 Y89.718 E.46865
G1 X138.058 Y125.496 E1.56907
G1 X138.072 Y130.29 E.21025
G1 X138.039 Y140.959 E.46788
G1 X137.944 Y141.528 E.02532
G1 X137.842 Y141.827 E.01383
G1 X137.617 Y142.21 E.01952
G1 X137.28 Y142.556 E.02117
G1 X137.043 Y142.712 E.01244
G1 X136.645 Y142.893 E.01916
G1 X136.284 Y142.985 E.01634
G1 X135.982 Y143.018 E.01333
G1 X84.009 Y143.018 E2.2793
G1 X83.439 Y142.925 E.02533
G1 X83.141 Y142.825 E.01383
G1 X82.756 Y142.6 E.01952
G1 X82.41 Y142.264 E.02117
G1 X82.253 Y142.028 E.01244
G1 X82.071 Y141.631 E.01916
G1 X81.978 Y141.27 E.01634
G1 X81.943 Y140.968 E.01333
G1 X81.91 Y130.28 E.46871
G1 X81.924 Y94.504 E1.56902
G1 X81.91 Y89.71 E.21026
G1 X81.943 Y79.041 E.46787
G1 X82.038 Y78.472 E.02532
G1 X82.141 Y78.169 E.01404
G1 X82.291 Y77.892 E.01378
G1 X82.45 Y77.697 E.01106
G1 X82.788 Y77.986 F18000
G1 F2400
G1 X82.872 Y77.887 E.00566
G1 X83.06 Y77.737 E.01057
G1 X83.332 Y77.587 E.01358
G1 X83.748 Y77.461 E.01909
G1 X83.993 Y77.43 E.01082
G1 X135.984 Y77.43 E2.28011
G1 X136.472 Y77.518 E.02177
G1 X136.697 Y77.6 E.01051
G1 X136.994 Y77.784 E.01533
G1 X137.199 Y77.985 E.01258
G1 X137.322 Y78.16 E.00941
G1 X137.476 Y78.479 E.0155
G1 X137.559 Y78.779 E.01368
G1 X137.59 Y79.026 E.01091
G1 X137.623 Y89.718 E.46889
G1 X137.61 Y125.497 E1.56914
G1 X137.623 Y130.288 E.21014
G1 X137.59 Y140.968 E.46838
G1 X137.501 Y141.457 E.02177
G1 X137.418 Y141.681 E.01051
G1 X137.233 Y141.978 E.01533
G1 X137.032 Y142.182 E.01258
G1 X136.856 Y142.305 E.00941
G1 X136.537 Y142.457 E.0155
G1 X136.236 Y142.539 E.01368
G1 X135.989 Y142.57 E.01091
G1 X83.998 Y142.57 E2.28011
G1 X83.51 Y142.482 E.02177
G1 X83.285 Y142.4 E.01051
G1 X82.988 Y142.216 E.01533
G1 X82.783 Y142.015 E.01258
G1 X82.66 Y141.84 E.0094
G1 X82.506 Y141.521 E.0155
G1 X82.423 Y141.221 E.01368
G1 X82.392 Y140.974 E.01091
G1 X82.359 Y130.281 E.46894
G1 X82.372 Y94.503 E1.56908
G1 X82.359 Y89.711 E.21014
G1 X82.392 Y79.032 E.46837
G1 X82.481 Y78.543 E.02177
G1 X82.565 Y78.316 E.01062
G1 X82.685 Y78.107 E.01057
G1 X82.762 Y78.016 E.00526
G1 X83.088 Y78.315 F18000
G1 F2400
G1 X83.208 Y78.184 E.00776
G1 X83.33 Y78.095 E.00665
G1 X83.55 Y77.979 E.01093
G1 X83.873 Y77.891 E.01464
G1 X83.984 Y77.879 E.00494
G1 X135.995 Y77.879 E2.281
G1 X136.392 Y77.959 E.01774
G1 X136.535 Y78.018 E.00677
G1 X136.685 Y78.108 E.00772
G1 X136.834 Y78.244 E.0088
G1 X136.924 Y78.365 E.00665
G1 X137.04 Y78.586 E.01093
G1 X137.129 Y78.907 E.01464
G1 X137.142 Y79.019 E.00494
G1 X137.175 Y89.717 E.46916
G1 X137.161 Y125.498 E1.5692
G1 X137.175 Y130.287 E.21002
G1 X137.142 Y140.979 E.46892
G1 X137.06 Y141.375 E.01774
G1 X137.001 Y141.517 E.00677
G1 X136.91 Y141.668 E.00772
G1 X136.774 Y141.816 E.0088
G1 X136.652 Y141.905 E.00665
G1 X136.432 Y142.021 E.01093
G1 X136.109 Y142.109 E.01464
G1 X135.998 Y142.121 E.00494
G1 X83.987 Y142.121 E2.281
G1 X83.59 Y142.041 E.01774
G1 X83.447 Y141.982 E.00677
G1 X83.297 Y141.892 E.00772
G1 X83.148 Y141.756 E.0088
G1 X83.058 Y141.635 E.00665
G1 X82.942 Y141.414 E.01093
G1 X82.853 Y141.093 E.01464
G1 X82.84 Y140.981 E.00494
G1 X82.807 Y130.282 E.46922
G1 X82.821 Y94.502 E1.56915
G1 X82.807 Y89.713 E.21003
G1 X82.84 Y79.021 E.46891
G1 X82.922 Y78.625 E.01774
G1 X82.981 Y78.483 E.00677
G1 X83.064 Y78.346 E.007
G1 X83.447 Y78.579 F18000
G1 F2400
G1 X83.462 Y78.554 E.00129
G1 X83.603 Y78.45 E.00766
G1 X83.754 Y78.378 E.00732
G1 X83.977 Y78.327 E.01004
G1 X136.009 Y78.327 E2.28192
G1 X136.294 Y78.396 E.01287
G1 X136.465 Y78.499 E.00875
G1 X136.569 Y78.64 E.00766
G1 X136.641 Y78.79 E.00732
G1 X136.693 Y79.013 E.01004
G1 X136.726 Y89.716 E.46941
G1 X136.713 Y125.499 E1.56927
G1 X136.726 Y130.285 E.20991
G1 X136.693 Y140.991 E.46952
G1 X136.623 Y141.276 E.01287
G1 X136.52 Y141.446 E.00875
G1 X136.379 Y141.55 E.00766
G1 X136.228 Y141.622 E.00732
G1 X136.005 Y141.673 E.01004
G1 X83.973 Y141.673 E2.28192
G1 X83.688 Y141.604 E.01287
G1 X83.517 Y141.501 E.00875
G1 X83.413 Y141.36 E.00766
G1 X83.341 Y141.21 E.00732
G1 X83.289 Y140.987 E.01004
G1 X83.256 Y130.282 E.46946
G1 X83.269 Y94.501 E1.56921
G1 X83.256 Y89.715 E.20991
G1 X83.289 Y79.009 E.46952
G1 X83.359 Y78.724 E.01287
G1 X83.426 Y78.613 E.0057
G1 X83.787 Y78.86 F18000
G1 F2400
G1 X83.962 Y78.776 E.00853
G1 X136.02 Y78.776 E2.28308
G1 X136.16 Y78.824 E.00648
G1 X136.245 Y78.999 E.00853
G1 X136.278 Y89.718 E.47007
G1 X136.264 Y125.499 E1.56924
G1 X136.278 Y130.283 E.20979
G1 X136.245 Y141.001 E.47004
G1 X136.195 Y141.14 E.00648
G1 X136.02 Y141.224 E.00853
G1 X83.962 Y141.224 E2.28308
G1 X83.822 Y141.176 E.00648
G1 X83.738 Y141.001 E.00853
G1 X83.704 Y130.283 E.47004
G1 X83.718 Y94.501 E1.56928
G1 X83.704 Y89.717 E.20979
G1 X83.738 Y78.999 E.47004
G1 X83.773 Y78.898 E.00472
G1 E-.8 F3600
G1 X135.696 Y140.675 F18000
G1 E.8 F3600
;TYPE:Outer wall
G1 F2400
G1 X84.286 Y140.675 E2.25466
G1 X84.253 Y130.282 E.45579
G1 X84.267 Y125.5 E.20972
G1 X84.253 Y89.718 E1.56927
G1 X84.286 Y79.325 E.4558
G1 X135.696 Y79.325 E2.25466
G1 X135.697 Y79.488 E.00716
G1 X135.729 Y89.718 E.44863
G1 X135.715 Y94.5 E.20972
G1 X135.729 Y130.282 E1.56927
G1 X135.696 Y140.655 E.45492
G1 X135.249 Y140.227 F18000
;TYPE:Inner wall
G1 F2400
G1 X84.733 Y140.227 E2.21545
G1 X84.702 Y130.282 E.43612
G1 X84.715 Y125.501 E.2097
G1 X84.702 Y89.719 E1.56925
G1 X84.733 Y79.773 E.43617
G1 X135.249 Y79.773 E2.21545
G1 X135.28 Y89.718 E.43612
G1 X135.267 Y94.499 E.2097
G1 X135.28 Y130.281 E1.56925
G1 X135.249 Y140.207 E.43529
G1 E-.8 F3600
G1 X127.513 Y94.18 F18000
G1 E.8 F3600
;TYPE:Outer wall
G1 F2400
G1 X127.484 Y94.187 E.00134
G1 X127.064 Y94.406 E.02076
G1 X126.721 Y94.721 E.02041
G1 X126.469 Y95.111 E.02037
G1 X126.322 Y95.551 E.02037
G1 X126.291 Y96.015 E.02037
G1 X126.378 Y96.472 E.02043
G1 X127.319 Y98.409 E.0944
G1 X127.977 Y99.995 E.07532
G1 X128.538 Y101.618 E.07531
G1 X128.998 Y103.272 E.07531
G1 X129.357 Y104.951 E.07531
G1 X129.613 Y106.649 E.07531
G1 X129.766 Y108.36 E.07531
G1 X129.813 Y110.076 E.07531
G1 X129.756 Y111.793 E.07531
G1 X129.595 Y113.502 E.07531
G1 X129.33 Y115.199 E.07531
G1 X128.961 Y116.876 E.07531
G1 X128.503 Y118.488 E.07349
G1 X127.922 Y120.148 E.07713
