; HEADER_BLOCK_START
; generated by AnycubicSlicerNext 1.3.9.3 on 2026-02-23 at 18:47:59
; total layer number: 148
; filament_density: 1.24
; filament_diameter: 1.75
; max_z_height: 29.64
; exclude_object: 0
; model_instances: 1
; source_info: {"models":[{"file_source":0,"mo_file_id":-1,"name":"Servo_Mount.stl_id_0_copy_0"}],"models_from":0,"plate_index":1,"slice_paras_process":2,"software_version":"AnycubicSlicerNext 1.3.9.3 20260131154219"}
; paint_info = [{"material_type":"PLA","paint_color":[105,164,255],"paint_index":0}]
; project_info = {"flush_multiplier":1.0,"flush_volumes_chan_multipliers":[1.0,1.0,1.0,1.0],"flush_volumes_matrix":[0.0],"flush_volumes_vector":[140.0,140.0]}
; flush_multiplier_calculate_by_acnext: 1
; test_mode: 0
; HEADER_BLOCK_END

; THUMBNAIL_BLOCK_START
; THUMBNAIL_BLOCK_END

; external perimeters extrusion width = 0.42mm
; perimeters extrusion width = 0.45mm
; infill extrusion width = 0.45mm
; solid infill extrusion width = 0.42mm
; top infill extrusion width = 0.42mm
; first layer extrusion width = 0.50mm

; EXECUTABLE_BLOCK_START
M201 X2000 Y2000 Z800 E2000
M203 X300 Y300 Z8 E100
M204 P2000 R2000 T2000
M205 X10.00 Y10.00 Z2.00 E5.00
;TYPE:Custom
G90 ; use absolute coordinates
M83 ; extruder relative mode
M104 S220 ; set extruder temp
M140 S60 ; set bed temp
M190 S60 ; wait for bed temp
M109 S220 ; wait for extruder temp
G28                                        ; move X/Y/Z to min endstops
G1 Z0.28                                   ; lift nozzle a bit 
G92 E0 
G1 Y3 F1800                                    ; zero the extruded length 
G1 X60  E25 F500                       ; Extrude 25mm of filament in a 5cm line. 
G92 E0                                     ; zero the extruded length again 
G1 E-2 F500                                ; Retract a little 
G1 X70 F4000                              ; Quickly wipe away from the filament line
M117
G90
G21
M83 ; use relative distances for extrusion
; EXECUTABLE_BLOCK_HEAD
; filament start gcode
M75 ; The first extruder is ready.
M106 S0
;LAYER_CHANGE
;Z:0.24
;HEIGHT:0.24
; BEFORE_LAYER_CHANGE 0 @ 0.24mm
G92 E0
; AFTER_LAYER_CHANGE 0 @ 0.24mm
M204 S500
; printing object "Servo_Mount.stl" id:0 copy 0
G1 E-.8 F3600
G1 X100.478 Y79.788 F18000
G1 Z.24
G1 E.8 F3600
;TYPE:Brim
;WIDTH:0.5
G1 F2400
G1 X100.874 Y79.291 E.02788
G1 X101.339 Y78.858 E.02788
G1 X101.864 Y78.499 E.02788
G1 X102.436 Y78.222 E.02788
G1 X103.039 Y78.035 E.02772
G1 X103.959 Y77.924 E.04061
G1 X106.452 Y77.902 E.10936
G1 X107.093 Y77.952 E.02819
G1 X107.713 Y78.094 E.02788
G1 X107.919 Y78.176 E.00973
G1 X108.08 Y78.177 E.00703
G1 X108.368 Y78.07 E.01349
G1 X108.991 Y77.94 E.02792
G1 X109.553 Y77.902 E.02471
G1 X116.003 Y77.924 E.28284
G1 X116.645 Y77.974 E.02826
G1 X117.264 Y78.117 E.02788
G1 X117.856 Y78.35 E.02788
G1 X118.406 Y78.669 E.02788
G1 X118.902 Y79.066 E.02788
G1 X119.334 Y79.532 E.02788
G1 X119.691 Y80.058 E.02788
G1 X119.967 Y80.631 E.02788
G1 X120.152 Y81.235 E.02769
G1 X120.261 Y82.197 E.04249
G1 X120.261 Y137.807 E2.43882
G1 X120.213 Y138.449 E.02825
G1 X120.071 Y139.069 E.02788
G1 X119.84 Y139.661 E.02788
G1 X119.522 Y140.212 E.02788
G1 X119.126 Y140.709 E.02788
G1 X118.661 Y141.142 E.02788
G1 X118.136 Y141.501 E.02788
G1 X117.564 Y141.778 E.02788
G1 X116.961 Y141.965 E.02769
G1 X115.999 Y142.076 E.04249
G1 X109.852 Y142.088 E.26956
G1 X109.209 Y142.044 E.02827
G1 X108.589 Y141.906 E.02788
G1 X108.075 Y141.709 E.02413
G1 X107.898 Y141.716 E.00776
G1 X107.721 Y141.8 E.00859
G1 X107.117 Y141.983 E.02771
G1 X106.179 Y142.088 E.0414
G1 X103.926 Y142.075 E.09878
G1 X103.286 Y142.015 E.02818
G1 X102.669 Y141.862 E.02788
G1 X102.082 Y141.619 E.02788
G1 X101.537 Y141.291 E.02788
G1 X101.048 Y140.886 E.02788
G1 X100.623 Y140.413 E.02788
G1 X100.275 Y139.881 E.02788
G1 X100.009 Y139.304 E.02788
G1 X99.832 Y138.697 E.02773
G1 X99.739 Y137.804 E.03938
G1 X99.739 Y131.008 E.29801
G1 X99.787 Y130.366 E.02825
G1 X99.929 Y129.746 E.02788
G1 X100.16 Y129.154 E.02788
G1 X100.478 Y128.604 E.02788
G1 X100.874 Y128.106 E.02788
G1 X101.339 Y127.673 E.02788
G1 X101.864 Y127.314 E.02788
G1 X102.436 Y127.037 E.02788
G1 X103.043 Y126.849 E.02788
G1 X103.671 Y126.753 E.02788
G1 X107.516 Y126.739 E.1686
G1 X107.655 Y126.69 E.00648
G1 X107.739 Y126.515 E.00852
G1 X107.739 Y93.485 E1.44857
G1 X107.691 Y93.346 E.00648
G1 X107.515 Y93.261 E.00855
G1 X104.008 Y93.261 E.15379
G1 X103.366 Y93.213 E.02825
G1 X102.746 Y93.071 E.02788
G1 X102.154 Y92.84 E.02788
G1 X101.604 Y92.522 E.02788
G1 X101.106 Y92.126 E.02788
G1 X100.673 Y91.661 E.02788
G1 X100.314 Y91.136 E.02788
G1 X100.037 Y90.564 E.02788
G1 X99.849 Y89.957 E.02788
G1 X99.752 Y89.325 E.02806
G1 X99.739 Y82.193 E.31276
G1 X99.787 Y81.551 E.02825
G1 X99.929 Y80.931 E.02788
G1 X100.16 Y80.339 E.02788
G1 X100.458 Y79.823 E.02612
G1 X100.847 Y80.049 F18000
G1 F2400
G1 X100.856 Y80.033 E.00077
G1 X101.211 Y79.59 E.02493
G1 X101.628 Y79.203 E.02493
G1 X102.098 Y78.884 E.02493
G1 X102.611 Y78.638 E.02493
G1 X103.146 Y78.474 E.02454
G1 X103.995 Y78.372 E.03752
G1 X106.431 Y78.351 E.10685
G1 X107.035 Y78.399 E.02657
G1 X107.57 Y78.522 E.02405
G1 X107.743 Y78.588 E.00815
G1 X107.927 Y78.624 E.00822
G1 X108.063 Y78.626 E.00595
G1 X108.247 Y78.593 E.00822
G1 X108.503 Y78.5 E.01192
G1 X109.043 Y78.387 E.02422
G1 X109.563 Y78.351 E.02285
G1 X115.979 Y78.372 E.28141
G1 X116.567 Y78.418 E.02583
G1 X117.14 Y78.55 E.02581
G1 X117.668 Y78.76 E.02493
G1 X118.143 Y79.035 E.02405
G1 X118.602 Y79.403 E.02581
G1 X118.987 Y79.821 E.02493
G1 X119.296 Y80.274 E.02405
G1 X119.544 Y80.786 E.02493
G1 X119.713 Y81.339 E.02536
G1 X119.811 Y82.215 E.03866
G1 X119.812 Y137.785 E2.43709
G1 X119.766 Y138.392 E.0267
G1 X119.638 Y138.946 E.02493
G1 X119.429 Y139.475 E.02493
G1 X119.144 Y139.967 E.02493
G1 X118.789 Y140.41 E.02493
G1 X118.372 Y140.797 E.02493
G1 X117.902 Y141.116 E.02493
G1 X117.389 Y141.362 E.02493
G1 X116.856 Y141.526 E.02448
G1 X115.965 Y141.628 E.03931
G1 X109.872 Y141.639 E.26721
G1 X109.264 Y141.596 E.02675
G1 X108.728 Y141.478 E.02405
G1 X108.249 Y141.295 E.02249
G1 X108.044 Y141.261 E.0091
G1 X107.895 Y141.267 E.00656
G1 X107.693 Y141.317 E.0091
G1 X107.549 Y141.383 E.00696
G1 X107.014 Y141.544 E.02452
G1 X106.163 Y141.638 E.03755
G1 X103.954 Y141.627 E.09685
G1 X103.352 Y141.569 E.02654
G1 X102.82 Y141.437 E.02405
G1 X102.294 Y141.221 E.02493
G1 X101.806 Y140.93 E.02493
G1 X101.367 Y140.569 E.02493
G1 X100.987 Y140.146 E.02493
G1 X100.673 Y139.672 E.02493
G1 X100.434 Y139.156 E.02493
G1 X100.278 Y138.622 E.02441
G1 X100.188 Y137.773 E.03742
G1 X100.188 Y131.03 E.29573
G1 X100.231 Y130.443 E.02582
G1 X100.362 Y129.869 E.02581
G1 X100.562 Y129.359 E.02405
G1 X100.845 Y128.865 E.02493
G1 X101.211 Y128.405 E.02581
G1 X101.628 Y128.019 E.02493
G1 X102.098 Y127.699 E.02493
G1 X102.592 Y127.46 E.02405
G1 X103.134 Y127.29 E.02493
G1 X103.696 Y127.203 E.02495
G1 X107.506 Y127.188 E.16708
G1 X107.676 Y127.159 E.00755
G1 X107.791 Y127.118 E.00536
G1 X107.961 Y127.014 E.00875
G1 X108.065 Y126.873 E.00766
G1 X108.137 Y126.723 E.00731
G1 X108.188 Y126.5 E.01004
G1 X108.188 Y93.496 E1.44741
G1 X108.119 Y93.211 E.01287
G1 X108.016 Y93.04 E.00874
G1 X107.874 Y92.936 E.0077
G1 X107.724 Y92.863 E.00734
G1 X107.5 Y92.812 E.01007
G1 X104.02 Y92.812 E.15261
G1 X103.423 Y92.766 E.02626
G1 X102.869 Y92.638 E.02493
G1 X102.341 Y92.429 E.02493
G1 X101.849 Y92.144 E.02493
G1 X101.405 Y91.789 E.02493
G1 X101.019 Y91.372 E.02493
G1 X100.709 Y90.919 E.02405
G1 X100.46 Y90.408 E.02493
G1 X100.29 Y89.866 E.02493
G1 X100.2 Y89.28 E.02598
G1 X100.188 Y82.215 E.30986
G1 X100.234 Y81.608 E.02668
G1 X100.362 Y81.054 E.02493
G1 X100.571 Y80.525 E.02493
G1 X100.827 Y80.083 E.0224
G1 X101.216 Y80.31 F18000
G1 F2400
G1 X101.233 Y80.28 E.00155
G1 X101.548 Y79.889 E.02198
G1 X101.917 Y79.55 E.02198
G1 X102.332 Y79.269 E.02198
G1 X102.784 Y79.053 E.02197
G1 X103.251 Y78.913 E.02137
G1 X104.031 Y78.821 E.03447
G1 X106.41 Y78.8 E.10433
G1 X106.977 Y78.845 E.02494
G1 X107.429 Y78.949 E.02035
G1 X107.667 Y79.03 E.01101
G1 X107.832 Y79.063 E.00738
G1 X108.051 Y79.074 E.00963
G1 X108.317 Y79.036 E.01177
G1 X108.636 Y78.93 E.01474
G1 X109.096 Y78.834 E.02061
G1 X109.582 Y78.8 E.0214
G1 X115.957 Y78.821 E.27955
G1 X116.509 Y78.864 E.02429
G1 X117.016 Y78.983 E.02283
G1 X117.463 Y79.161 E.0211
G1 X117.88 Y79.401 E.02112
G1 X118.303 Y79.739 E.02372
G1 X118.641 Y80.108 E.02197
G1 X118.911 Y80.508 E.02116
G1 X119.12 Y80.941 E.02109
G1 X119.273 Y81.443 E.02301
G1 X119.362 Y82.233 E.03486
G1 X119.364 Y137.763 E2.43533
G1 X119.319 Y138.334 E.02513
G1 X119.205 Y138.822 E.02197
G1 X119.019 Y139.288 E.02198
G1 X118.767 Y139.72 E.02198
G1 X118.452 Y140.111 E.02198
G1 X118.083 Y140.45 E.02198
G1 X117.668 Y140.731 E.02198
G1 X117.216 Y140.947 E.02197
G1 X116.751 Y141.086 E.02127
G1 X115.931 Y141.179 E.03619
G1 X109.892 Y141.191 E.26486
G1 X109.319 Y141.149 E.02523
G1 X108.851 Y141.045 E.02103
G1 X108.313 Y140.852 E.02506
G1 X108.019 Y140.814 E.013
G1 X107.777 Y140.834 E.01063
G1 X107.595 Y140.879 E.0082
G1 X107.38 Y140.966 E.01018
G1 X106.912 Y141.104 E.02142
G1 X106.147 Y141.189 E.03376
G1 X103.983 Y141.179 E.09489
G1 X103.418 Y141.124 E.0249
G1 X102.95 Y141.006 E.02114
G1 X102.487 Y140.814 E.02202
G1 X102.057 Y140.556 E.02198
G1 X101.686 Y140.25 E.0211
G1 X101.349 Y139.878 E.02198
G1 X101.072 Y139.461 E.02198
G1 X100.859 Y139.007 E.02198
G1 X100.723 Y138.546 E.02107
G1 X100.636 Y137.743 E.03545
G1 X100.636 Y131.052 E.29343
G1 X100.675 Y130.52 E.02339
G1 X100.796 Y129.992 E.02373
G1 X100.973 Y129.544 E.02112
G1 X101.223 Y129.11 E.022
G1 X101.534 Y128.719 E.02191
G1 X101.901 Y128.378 E.02196
G1 X102.332 Y128.084 E.02288
G1 X102.767 Y127.875 E.02116
G1 X103.227 Y127.731 E.02114
G1 X103.722 Y127.652 E.02198
G1 X107.499 Y127.636 E.16563
G1 X107.742 Y127.602 E.01078
G1 X108.035 Y127.494 E.0137
G1 X108.183 Y127.404 E.00759
G1 X108.331 Y127.269 E.0088
G1 X108.42 Y127.147 E.00664
G1 X108.536 Y126.926 E.01092
G1 X108.624 Y126.604 E.01463
G1 X108.636 Y126.492 E.00494
G1 X108.636 Y93.51 E1.44649
G1 X108.556 Y93.113 E.01774
G1 X108.497 Y92.971 E.00677
G1 X108.407 Y92.82 E.00771
G1 X108.271 Y92.672 E.00881
G1 X108.149 Y92.581 E.00668
G1 X107.819 Y92.425 E.01599
G1 X107.487 Y92.364 E.01479
G1 X104.032 Y92.363 E.15153
G1 X103.501 Y92.322 E.02336
G1 X102.993 Y92.205 E.02286
G1 X102.528 Y92.019 E.02198
G1 X102.095 Y91.767 E.02198
G1 X101.704 Y91.452 E.02198
G1 X101.377 Y91.099 E.02114
G1 X101.103 Y90.701 E.02116
G1 X100.882 Y90.251 E.022
G1 X100.731 Y89.774 E.02195
G1 X100.649 Y89.235 E.02389
G1 X100.636 Y82.237 E.30694
G1 X100.681 Y81.666 E.0251
G1 X100.795 Y81.178 E.02197
G1 X100.981 Y80.712 E.02198
G1 X101.195 Y80.345 E.01868
G1 X101.583 Y80.573 F18000
G1 F2400
G1 X101.61 Y80.527 E.00234
G1 X101.883 Y80.19 E.01903
G1 X102.204 Y79.897 E.01903
G1 X102.564 Y79.655 E.01903
G1 X102.956 Y79.47 E.01901
G1 X103.354 Y79.352 E.0182
G1 X104.067 Y79.269 E.03147
G1 X106.4 Y79.249 E.10232
G1 X106.918 Y79.292 E.02279
G1 X107.299 Y79.38 E.01717
G1 X107.587 Y79.472 E.01324
G1 X107.817 Y79.511 E.01025
G1 X108.018 Y79.521 E.00879
G1 X108.371 Y79.481 E.01558
G1 X108.76 Y79.363 E.01786
G1 X109.149 Y79.281 E.01742
G1 X109.602 Y79.248 E.01995
G1 X115.933 Y79.269 E.27764
G1 X116.43 Y79.308 E.02184
G1 X116.89 Y79.416 E.02076
G1 X117.258 Y79.562 E.01736
G1 X117.618 Y79.768 E.01817
G1 X118.002 Y80.075 E.02159
G1 X118.293 Y80.395 E.01897
G1 X118.516 Y80.725 E.01743
G1 X118.697 Y81.096 E.01811
G1 X118.834 Y81.546 E.02066
G1 X118.914 Y82.265 E.03172
G1 X118.915 Y137.74 E2.4329
G1 X118.872 Y138.275 E.02354
G1 X118.772 Y138.696 E.019
G1 X118.61 Y139.099 E.01903
G1 X118.39 Y139.473 E.01903
G1 X118.117 Y139.81 E.01903
G1 X117.796 Y140.103 E.01903
G1 X117.436 Y140.345 E.01903
G1 X117.044 Y140.53 E.019
G1 X116.649 Y140.647 E.01807
G1 X115.898 Y140.731 E.03312
G1 X109.913 Y140.742 E.26249
G1 X109.374 Y140.702 E.02369
G1 X108.97 Y140.611 E.01816
G1 X108.359 Y140.406 E.0283
G1 X107.969 Y140.368 E.01715
G1 X107.749 Y140.386 E.00971
G1 X107.495 Y140.442 E.01141
G1 X107.226 Y140.544 E.01259
G1 X106.834 Y140.659 E.01792
G1 X106.131 Y140.739 E.03106
G1 X104.012 Y140.73 E.09292
G1 X103.485 Y140.678 E.02323
G1 X103.082 Y140.576 E.01822
G1 X102.681 Y140.407 E.0191
G1 X102.309 Y140.182 E.01906
G1 X101.989 Y139.917 E.01822
G1 X101.698 Y139.594 E.01907
G1 X101.459 Y139.231 E.01903
G1 X101.277 Y138.838 E.01904
G1 X101.163 Y138.446 E.01791
G1 X101.085 Y137.711 E.03239
G1 X101.085 Y131.073 E.29112
G1 X101.122 Y130.577 E.02184
G1 X101.223 Y130.135 E.01985
G1 X101.374 Y129.749 E.01819
G1 X101.601 Y129.355 E.01995
G1 X101.872 Y129.017 E.01898
G1 X102.174 Y128.736 E.01811
G1 X102.566 Y128.469 E.02078
G1 X102.941 Y128.291 E.01824
G1 X103.32 Y128.172 E.01742
G1 X103.769 Y128.101 E.0199
G1 X107.492 Y128.085 E.16331
G1 X107.794 Y128.047 E.01333
G1 X108.179 Y127.919 E.01781
G1 X108.496 Y127.726 E.01627
G1 X108.626 Y127.606 E.00776
G1 X108.777 Y127.418 E.01056
G1 X108.972 Y127.031 E.01901
G1 X109.07 Y126.647 E.01741
G1 X109.085 Y126.486 E.00706
G1 X109.085 Y93.523 E1.44563
G1 X108.966 Y92.933 E.02641
G1 X108.797 Y92.6 E.01637
G1 X108.529 Y92.305 E.01751
G1 X108.331 Y92.171 E.01046
G1 X108.018 Y92.024 E.01516
G1 X107.894 Y91.983 E.00573
G1 X107.477 Y91.915 E.01855
G1 X104.045 Y91.914 E.15052
G1 X103.579 Y91.878 E.02046
G1 X103.138 Y91.778 E.01987
G1 X102.734 Y91.619 E.01901
G1 X102.342 Y91.39 E.01991
G1 X102.005 Y91.116 E.01906
G1 X101.723 Y90.81 E.01827
G1 X101.497 Y90.482 E.01744
G1 X101.304 Y90.092 E.01907
G1 X101.173 Y89.681 E.01893
G1 X101.097 Y89.191 E.02177
G1 X101.085 Y82.259 E.30399
G1 X101.128 Y81.725 E.0235
G1 X101.228 Y81.304 E.019
G1 X101.39 Y80.901 E.01903
G1 X101.563 Y80.607 E.01494
G1 X101.949 Y80.837 F18000
G1 F2400
G1 X101.986 Y80.775 E.00314
G1 X102.218 Y80.491 E.01609
G1 X102.49 Y80.245 E.01609
G1 X102.795 Y80.042 E.01608
G1 X103.126 Y79.887 E.01603
G1 X103.456 Y79.792 E.01505
G1 X104.102 Y79.717 E.02853
G1 X106.389 Y79.698 E.10031
G1 X106.839 Y79.735 E.01979
G1 X107.517 Y79.915 E.03078
G1 X107.986 Y79.968 E.0207
G1 X108.411 Y79.928 E.0187
G1 X108.868 Y79.798 E.02085
G1 X109.202 Y79.728 E.01497
G1 X109.623 Y79.697 E.0185
G1 X115.91 Y79.718 E.27571
G1 X116.35 Y79.752 E.01938
G1 X116.765 Y79.849 E.01867
G1 X117.071 Y79.972 E.01447
G1 X117.356 Y80.134 E.01438
G1 X117.701 Y80.411 E.01941
G1 X117.945 Y80.681 E.01595
G1 X118.131 Y80.958 E.01463
G1 X118.273 Y81.25 E.01427
G1 X118.394 Y81.649 E.01827
G1 X118.465 Y82.298 E.02861
G1 X118.467 Y137.716 E2.43045
G1 X118.425 Y138.215 E.02193
G1 X118.34 Y138.57 E.01601
G1 X118.201 Y138.909 E.01609
G1 X118.014 Y139.225 E.01609
G1 X117.796 Y139.494 E.01521
G1 X117.526 Y139.743 E.01609
G1 X117.222 Y139.948 E.01608
G1 X116.893 Y140.105 E.01599
G1 X116.548 Y140.207 E.01578
G1 X115.865 Y140.282 E.03011
G1 X109.934 Y140.294 E.26011
G1 X109.431 Y140.255 E.02214
G1 X109.088 Y140.177 E.01545
G1 X108.389 Y139.958 E.03209
G1 X107.922 Y139.922 E.02054
G1 X107.645 Y139.95 E.01221
G1 X107.405 Y140.002 E.01077
G1 X106.733 Y140.219 E.03098
G1 X106.114 Y140.29 E.02734
G1 X104.041 Y140.282 E.09089
G1 X103.553 Y140.233 E.02153
G1 X103.216 Y140.145 E.01527
G1 X102.876 Y140.001 E.01619
G1 X102.562 Y139.809 E.01613
G1 X102.294 Y139.585 E.01533
G1 X102.061 Y139.326 E.01528
G1 X101.858 Y139.021 E.01609
G1 X101.702 Y138.689 E.01607
G1 X101.604 Y138.347 E.01563
G1 X101.533 Y137.68 E.02939
G1 X101.533 Y131.095 E.2888
G1 X101.569 Y130.634 E.02029
G1 X101.651 Y130.277 E.01605
G1 X101.776 Y129.953 E.01523
G1 X101.979 Y129.601 E.01785
G1 X102.195 Y129.331 E.01516
G1 X102.447 Y129.095 E.01515
G1 X102.799 Y128.855 E.01867
G1 X103.097 Y128.713 E.01448
G1 X103.414 Y128.613 E.01457
G1 X103.815 Y128.549 E.01783
G1 X107.487 Y128.533 E.16103
G1 X107.838 Y128.494 E.01551
G1 X108.315 Y128.346 E.02188
G1 X108.806 Y128.049 E.02516
G1 X108.982 Y127.88 E.01072
G1 X109.119 Y127.708 E.00964
G1 X109.37 Y127.239 E.02333
G1 X109.517 Y126.679 E.0254
G1 X109.533 Y126.481 E.00871
G1 X109.533 Y93.535 E1.44486
G1 X109.408 Y92.852 E.03046
G1 X109.362 Y92.721 E.00608
G1 X109.202 Y92.405 E.01557
G1 X109.124 Y92.292 E.00599
G1 X108.769 Y91.926 E.02237
