; HEADER_BLOCK_START
; generated by AnycubicSlicerNext 1.3.9.3 on 2026-02-23 at 18:48:49
; total layer number: 60
; filament_density: 1.24
; filament_diameter: 1.75
; max_z_height: 12.04
; exclude_object: 0
; model_instances: 1
; source_info: {"models":[{"file_source":0,"mo_file_id":-1,"name":"tensor.stl_id_0_copy_0"}],"models_from":0,"plate_index":1,"slice_paras_process":2,"software_version":"AnycubicSlicerNext 1.3.9.3 20260131154219"}
; paint_info = [{"material_type":"PLA","paint_color":[105,164,255],"paint_index":0}]
; project_info = {"flush_multiplier":1.0,"flush_volumes_chan_multipliers":[1.0,1.0,1.0,1.0],"flush_volumes_matrix":[0.0],"flush_volumes_vector":[140.0,140.0]}
; flush_multiplier_calculate_by_acnext: 1
; test_mode: 0
; HEADER_BLOCK_END

; THUMBNAIL_BLOCK_START
; THUMBNAIL_BLOCK_END

; external perimeters extrusion width = 0.42mm
; perimeters extrusion width = 0.45mm
; infill extrusion width = 0.45mm
; solid infill extrusion width = 0.42mm
; top infill extrusion width = 0.42mm
; first layer extrusion width = 0.50mm

; EXECUTABLE_BLOCK_START
M201 X2000 Y2000 Z800 E2000
M203 X300 Y300 Z8 E100
M204 P2000 R2000 T2000
M205 X10.00 Y10.00 Z2.00 E5.00
;TYPE:Custom
G90 ; use absolute coordinates
M83 ; extruder relative mode
M104 S220 ; set extruder temp
M140 S60 ; set bed temp
M190 S60 ; wait for bed temp
M109 S220 ; wait for extruder temp
G28                                        ; move X/Y/Z to min endstops
G1 Z0.28                                   ; lift nozzle a bit 
G92 E0 
G1 Y3 F1800                                    ; zero the extruded length 
G1 X60  E25 F500                       ; Extrude 25mm of filament in a 5cm line. 
G92 E0                                     ; zero the extruded length again 
G1 E-2 F500                                ; Retract a little 
G1 X70 F4000                              ; Quickly wipe away from the filament line
M117
G90
G21
M83 ; use relative distances for extrusion
; EXECUTABLE_BLOCK_HEAD
; filament start gcode
M75 ; The first extruder is ready.
M106 S0
;LAYER_CHANGE
;Z:0.24
;HEIGHT:0.24
; BEFORE_LAYER_CHANGE 0 @ 0.24mm
G92 E0
; AFTER_LAYER_CHANGE 0 @ 0.24mm
M204 S500
; printing object "tensor.stl" id:0 copy 0
G1 E-.8 F3600
G1 X103.874 Y83.525 F18000
G1 Z.24
G1 E.8 F3600
;TYPE:Brim
;WIDTH:0.5
G1 F2400
G1 X104.339 Y83.092 E.02788
G1 X104.864 Y82.733 E.02788
G1 X105.436 Y82.456 E.02788
G1 X106.043 Y82.268 E.02788
G1 X106.675 Y82.171 E.02806
G1 X107.004 Y82.158 E.01444
G1 X112.992 Y82.158 E.26258
G1 X113.634 Y82.206 E.02825
G1 X114.254 Y82.348 E.02788
G1 X114.846 Y82.579 E.02788
G1 X115.396 Y82.897 E.02788
G1 X115.894 Y83.293 E.02788
G1 X116.327 Y83.758 E.02788
G1 X116.686 Y84.283 E.02788
G1 X116.963 Y84.855 E.02788
G1 X117.151 Y85.462 E.02788
G1 X117.248 Y86.094 E.02806
G1 X117.261 Y103.092 E.74544
G1 X117.213 Y103.734 E.02825
G1 X117.094 Y104.256 E.02348
G1 X117.098 Y104.372 E.00511
G1 X117.151 Y104.543 E.00783
G1 X117.248 Y105.175 E.02806
G1 X117.261 Y105.504 E.01444
G1 X117.261 Y114.492 E.39415
G1 X117.213 Y115.134 E.02825
G1 X117.094 Y115.656 E.02348
G1 X117.098 Y115.772 E.00511
G1 X117.151 Y115.943 E.00783
G1 X117.248 Y116.575 E.02806
G1 X117.261 Y116.904 E.01444
G1 X117.261 Y133.573 E.73101
G1 X117.213 Y134.215 E.02825
G1 X117.071 Y134.835 E.02788
G1 X116.84 Y135.427 E.02788
G1 X116.522 Y135.977 E.02788
G1 X116.126 Y136.475 E.02788
G1 X115.661 Y136.908 E.02788
G1 X115.136 Y137.267 E.02788
G1 X114.564 Y137.544 E.02788
G1 X113.957 Y137.732 E.02788
G1 X113.325 Y137.829 E.02806
G1 X112.996 Y137.842 E.01444
G1 X107.008 Y137.842 E.26258
G1 X106.366 Y137.794 E.02825
G1 X105.746 Y137.652 E.02788
G1 X105.154 Y137.421 E.02788
G1 X104.604 Y137.103 E.02788
G1 X104.106 Y136.707 E.02788
G1 X103.673 Y136.242 E.02788
G1 X103.314 Y135.717 E.02788
G1 X103.037 Y135.145 E.02788
G1 X102.849 Y134.538 E.02788
G1 X102.752 Y133.906 E.02806
G1 X102.739 Y116.908 E.74544
G1 X102.787 Y116.266 E.02825
G1 X102.906 Y115.744 E.02348
G1 X102.902 Y115.628 E.00511
G1 X102.849 Y115.457 E.00783
G1 X102.752 Y114.825 E.02806
G1 X102.739 Y114.496 E.01444
G1 X102.739 Y105.508 E.39415
G1 X102.787 Y104.866 E.02825
G1 X102.906 Y104.344 E.02348
G1 X102.902 Y104.228 E.00511
G1 X102.849 Y104.057 E.00783
G1 X102.752 Y103.425 E.02806
G1 X102.739 Y103.096 E.01444
G1 X102.739 Y86.427 E.73101
G1 X102.787 Y85.785 E.02825
G1 X102.929 Y85.165 E.02788
G1 X103.16 Y84.573 E.02788
G1 X103.478 Y84.023 E.02788
G1 X103.849 Y83.556 E.02612
G1 X104.197 Y83.839 F18000
G1 F2400
G1 X104.613 Y83.45 E.02493
G1 X105.081 Y83.128 E.02493
G1 X105.611 Y82.872 E.02581
G1 X106.154 Y82.704 E.02493
G1 X106.71 Y82.619 E.02469
G1 X107.01 Y82.607 E.01316
G1 X112.98 Y82.607 E.2618
G1 X113.577 Y82.653 E.02626
G1 X114.131 Y82.781 E.02493
G1 X114.641 Y82.981 E.02405
G1 X115.135 Y83.264 E.02493
G1 X115.58 Y83.616 E.02493
G1 X115.981 Y84.047 E.02581
G1 X116.291 Y84.5 E.02405
G1 X116.54 Y85.011 E.02493
G1 X116.714 Y85.573 E.02581
G1 X116.8 Y86.139 E.0251
G1 X116.812 Y103.07 E.74254
G1 X116.769 Y103.657 E.02581
G1 X116.658 Y104.148 E.02206
G1 X116.646 Y104.282 E.00592
G1 X116.8 Y105.21 E.04127
G1 X116.812 Y105.516 E.01339
G1 X116.812 Y114.47 E.3927
G1 X116.769 Y115.057 E.02582
G1 X116.658 Y115.548 E.02206
G1 X116.646 Y115.682 E.00592
G1 X116.8 Y116.61 E.04127
G1 X116.812 Y116.916 E.01339
G1 X116.812 Y133.551 E.72956
G1 X116.769 Y134.138 E.02582
G1 X116.644 Y134.693 E.02493
G1 X116.438 Y135.222 E.02493
G1 X116.155 Y135.716 E.02493
G1 X115.803 Y136.161 E.02493
G1 X115.387 Y136.55 E.02493
G1 X114.919 Y136.872 E.02493
G1 X114.389 Y137.128 E.02581
G1 X113.846 Y137.296 E.02493
G1 X113.29 Y137.381 E.02469
G1 X112.99 Y137.393 E.01317
G1 X107.03 Y137.393 E.26136
G1 X106.443 Y137.35 E.02582
G1 X105.869 Y137.219 E.02581
G1 X105.341 Y137.01 E.02493
G1 X104.849 Y136.725 E.02493
G1 X104.42 Y136.384 E.02405
G1 X104.031 Y135.968 E.02493
G1 X103.709 Y135.5 E.02493
G1 X103.453 Y134.97 E.02581
G1 X103.286 Y134.427 E.02493
G1 X103.2 Y133.861 E.0251
G1 X103.188 Y116.93 E.74254
G1 X103.231 Y116.343 E.02581
G1 X103.342 Y115.852 E.02206
G1 X103.354 Y115.718 E.00592
G1 X103.2 Y114.79 E.04127
G1 X103.188 Y114.484 E.01339
G1 X103.188 Y105.53 E.3927
G1 X103.231 Y104.943 E.02582
G1 X103.342 Y104.452 E.02206
G1 X103.354 Y104.318 E.00592
G1 X103.2 Y103.39 E.04127
G1 X103.188 Y103.084 E.01339
G1 X103.188 Y86.449 E.72956
G1 X103.231 Y85.862 E.02582
G1 X103.356 Y85.307 E.02493
G1 X103.562 Y84.778 E.02493
G1 X103.845 Y84.284 E.02493
G1 X104.173 Y83.87 E.02318
G1 X104.522 Y84.151 F18000
G1 F2400
G1 X104.887 Y83.808 E.02198
G1 X105.299 Y83.523 E.02195
G1 X105.785 Y83.287 E.0237
G1 X106.264 Y83.141 E.02197
G1 X106.747 Y83.067 E.0214
G1 X107.017 Y83.055 E.01187
G1 X112.957 Y83.056 E.26053
G1 X113.499 Y83.097 E.02381
G1 X114.007 Y83.214 E.02288
G1 X114.456 Y83.392 E.02116
G1 X114.874 Y83.631 E.02114
G1 X115.267 Y83.94 E.02195
G1 X115.636 Y84.336 E.02372
G1 X115.906 Y84.735 E.02112
G1 X116.117 Y85.167 E.0211
G1 X116.273 Y85.664 E.02281
G1 X116.351 Y86.182 E.02301
G1 X116.364 Y103.048 E.73968
G1 X116.325 Y103.581 E.02342
G1 X116.222 Y104.042 E.02073
G1 X116.2 Y104.234 E.00844
G1 X116.205 Y104.364 E.00572
G1 X116.351 Y105.248 E.03931
G1 X116.364 Y105.528 E.01226
G1 X116.364 Y114.448 E.39122
G1 X116.325 Y114.981 E.02343
G1 X116.222 Y115.442 E.02073
G1 X116.2 Y115.634 E.00844
G1 X116.205 Y115.764 E.00572
G1 X116.351 Y116.648 E.03931
G1 X116.364 Y116.928 E.01226
G1 X116.364 Y133.529 E.72808
G1 X116.325 Y134.062 E.02342
G1 X116.216 Y134.552 E.022
G1 X116.036 Y135.019 E.02198
G1 X115.788 Y135.455 E.02198
G1 X115.478 Y135.849 E.02198
G1 X115.113 Y136.192 E.02198
G1 X114.701 Y136.477 E.02195
G1 X114.234 Y136.705 E.02281
G1 X113.755 Y136.854 E.022
G1 X113.253 Y136.933 E.02226
G1 X112.977 Y136.945 E.01212
G1 X107.052 Y136.945 E.25988
G1 X106.52 Y136.906 E.02339
G1 X106.012 Y136.792 E.02282
G1 X105.528 Y136.6 E.02284
G1 X105.094 Y136.347 E.022
G1 X104.718 Y136.046 E.02116
G1 X104.389 Y135.694 E.02114
G1 X104.104 Y135.283 E.02195
G1 X103.876 Y134.815 E.02281
G1 X103.723 Y134.317 E.02284
G1 X103.649 Y133.818 E.02215
G1 X103.636 Y116.952 E.73968
G1 X103.675 Y116.419 E.02342
G1 X103.778 Y115.958 E.02073
G1 X103.8 Y115.766 E.00844
G1 X103.795 Y115.636 E.00572
G1 X103.649 Y114.752 E.03931
G1 X103.636 Y114.472 E.01226
G1 X103.636 Y105.552 E.39123
G1 X103.675 Y105.019 E.02343
G1 X103.778 Y104.558 E.02073
G1 X103.8 Y104.366 E.00844
G1 X103.795 Y104.236 E.00572
G1 X103.649 Y103.352 E.03931
G1 X103.636 Y103.072 E.01226
G1 X103.636 Y86.471 E.72809
G1 X103.675 Y85.938 E.02342
G1 X103.784 Y85.448 E.022
G1 X103.964 Y84.981 E.02198
G1 X104.212 Y84.545 E.02198
G1 X104.497 Y84.183 E.02023
G1 X104.85 Y84.462 F18000
G1 F2400
G1 X104.861 Y84.448 E.00079
G1 X105.178 Y84.152 E.01903
G1 X105.535 Y83.907 E.01896
G1 X105.94 Y83.711 E.01973
G1 X106.355 Y83.583 E.01905
G1 X106.783 Y83.516 E.01903
G1 X107.03 Y83.504 E.01082
G1 X112.935 Y83.504 E.25898
G1 X113.421 Y83.541 E.02136
G1 X113.883 Y83.647 E.0208
G1 X114.269 Y83.802 E.01824
G1 X114.614 Y83.999 E.01742
G1 X114.954 Y84.265 E.01895
G1 X115.29 Y84.625 E.02159
G1 X115.522 Y84.969 E.01818
G1 X115.695 Y85.325 E.01735
G1 X115.836 Y85.775 E.0207
G1 X115.903 Y86.226 E.02
G1 X115.915 Y103.027 E.73683
G1 X115.88 Y103.506 E.02105
G1 X115.786 Y103.938 E.01939
G1 X115.752 Y104.258 E.01409
G1 X115.764 Y104.444 E.00821
G1 X115.903 Y105.287 E.03747
G1 X115.915 Y105.541 E.01113
G1 X115.915 Y114.427 E.38972
G1 X115.88 Y114.906 E.02107
G1 X115.786 Y115.338 E.01939
G1 X115.752 Y115.658 E.01409
G1 X115.764 Y115.844 E.00821
G1 X115.903 Y116.687 E.03747
G1 X115.915 Y116.941 E.01113
G1 X115.915 Y133.508 E.72658
G1 X115.88 Y133.987 E.02106
G1 X115.787 Y134.412 E.01908
G1 X115.633 Y134.817 E.01903
G1 X115.42 Y135.195 E.01903
G1 X115.152 Y135.537 E.01903
G1 X114.837 Y135.836 E.01903
G1 X114.483 Y136.083 E.01897
G1 X114.077 Y136.283 E.01981
G1 X113.663 Y136.413 E.01906
G1 X113.216 Y136.484 E.01983
G1 X112.965 Y136.496 E.01105
G1 X107.073 Y136.496 E.25837
G1 X106.596 Y136.462 E.02099
G1 X106.135 Y136.358 E.02072
G1 X105.715 Y136.191 E.0198
G1 X105.341 Y135.971 E.01903
G1 X105.031 Y135.722 E.01744
G1 X104.745 Y135.419 E.01827
G1 X104.487 Y135.046 E.01988
G1 X104.291 Y134.64 E.01979
G1 X104.16 Y134.208 E.0198
G1 X104.097 Y133.775 E.01919
G1 X104.085 Y116.973 E.73687
G1 X104.12 Y116.494 E.02105
G1 X104.214 Y116.062 E.01939
G1 X104.248 Y115.742 E.01409
G1 X104.236 Y115.556 E.00821
G1 X104.097 Y114.713 E.03747
G1 X104.085 Y114.46 E.01112
G1 X104.085 Y105.573 E.38972
G1 X104.12 Y105.094 E.02107
G1 X104.214 Y104.662 E.01939
G1 X104.248 Y104.342 E.01409
G1 X104.236 Y104.156 E.00821
G1 X104.097 Y103.313 E.03747
G1 X104.085 Y103.06 E.01112
G1 X104.085 Y86.492 E.72658
G1 X104.12 Y86.013 E.02106
G1 X104.213 Y85.588 E.01908
G1 X104.367 Y85.183 E.01903
G1 X104.592 Y84.788 E.01991
G1 X104.825 Y84.493 E.01649
G1 X105.178 Y84.77 F18000
G1 F2400
G1 X105.186 Y84.76 E.00054
G1 X105.453 Y84.509 E.01608
G1 X105.752 Y84.301 E.01599
G1 X106.095 Y84.134 E.01675
G1 X106.447 Y84.024 E.01615
G1 X106.822 Y83.964 E.01665
G1 X107.044 Y83.952 E.00975
G1 X112.913 Y83.953 E.25741
G1 X113.343 Y83.985 E.01891
G1 X113.758 Y84.081 E.01869
G1 X114.065 Y84.203 E.01448
G1 X114.355 Y84.367 E.01462
G1 X114.642 Y84.59 E.01594
G1 X114.944 Y84.914 E.01941
G1 X115.127 Y85.186 E.01438
G1 X115.273 Y85.482 E.01447
G1 X115.394 Y85.865 E.01764
G1 X115.454 Y86.269 E.0179
G1 X115.467 Y103.006 E.73403
G1 X115.436 Y103.432 E.01873
G1 X115.34 Y103.897 E.02081
G1 X115.305 Y104.293 E.01744
G1 X115.322 Y104.524 E.01015
G1 X115.455 Y105.327 E.0357
G1 X115.467 Y105.554 E.00999
G1 X115.467 Y114.406 E.38818
G1 X115.436 Y114.832 E.01875
G1 X115.34 Y115.297 E.02081
G1 X115.305 Y115.693 E.01744
G1 X115.322 Y115.924 E.01015
G1 X115.455 Y116.727 E.0357
G1 X115.467 Y116.954 E.00999
G1 X115.467 Y133.487 E.72504
G1 X115.436 Y133.913 E.01873
G1 X115.359 Y134.273 E.01618
G1 X115.229 Y134.617 E.01609
G1 X115.05 Y134.937 E.01609
G1 X114.826 Y135.227 E.01609
G1 X114.561 Y135.48 E.01609
G1 X114.262 Y135.69 E.01598
G1 X113.919 Y135.861 E.01681
G1 X113.569 Y135.973 E.01612
G1 X113.178 Y136.036 E.01739
G1 X112.951 Y136.048 E.00996
G1 X107.094 Y136.048 E.25685
G1 X106.672 Y136.017 E.01858
G1 X106.278 Y135.93 E.01767
G1 X105.904 Y135.781 E.01765
G1 X105.589 Y135.594 E.01609
G1 X105.329 Y135.385 E.01463
G1 X105.102 Y135.143 E.01455
G1 X104.882 Y134.828 E.01685
G1 X104.715 Y134.485 E.01673
G1 X104.602 Y134.12 E.01678
G1 X104.546 Y133.733 E.01715
G1 X104.533 Y116.994 E.7341
G1 X104.564 Y116.568 E.01873
G1 X104.66 Y116.103 E.02081
G1 X104.695 Y115.707 E.01744
G1 X104.678 Y115.476 E.01015
G1 X104.545 Y114.673 E.0357
G1 X104.533 Y114.446 E.00999
G1 X104.533 Y105.594 E.38819
G1 X104.564 Y105.168 E.01874
G1 X104.66 Y104.703 E.02081
G1 X104.695 Y104.307 E.01744
G1 X104.678 Y104.076 E.01015
G1 X104.545 Y103.273 E.0357
G1 X104.533 Y103.046 E.00999
G1 X104.533 Y86.513 E.72505
G1 X104.564 Y86.087 E.01873
G1 X104.641 Y85.727 E.01618
G1 X104.77 Y85.384 E.01604
G1 X104.959 Y85.049 E.0169
G1 X105.153 Y84.802 E.01376
G1 X105.509 Y85.089 F18000
G1 F2400
G1 X105.557 Y85.029 E.00334
G1 X105.888 Y84.762 E.01864
G1 X106.239 Y84.575 E.01747
G1 X106.557 Y84.474 E.01462
G1 X107.048 Y84.401 E.0218
G1 X112.966 Y84.401 E.2595
G1 X113.262 Y84.432 E.01307
G1 X113.566 Y84.502 E.01366
G1 X113.83 Y84.597 E.01234
G1 X114.101 Y84.744 E.01348
G1 X114.466 Y85.054 E.02101
G1 X114.658 Y85.306 E.01392
G1 X114.8 Y85.562 E.01281
G1 X114.844 Y85.668 E.00506
G1 X115.003 Y86.259 E.0268
G1 X115.018 Y86.453 E.00857
G1 X115.018 Y103.051 E.72792
G1 X114.9 Y103.715 E.02958
G1 X114.784 Y104.009 E.01383
G1 X114.65 Y104.238 E.01167
G1 X114.647 Y104.368 E.0057
G1 X114.844 Y104.749 E.01878
G1 X114.965 Y105.144 E.01814
G1 X115.018 Y105.54 E.01753
G1 X115.018 Y114.451 E.39081
G1 X114.9 Y115.115 E.02958
G1 X114.784 Y115.409 E.01383
G1 X114.65 Y115.638 E.01167
G1 X114.647 Y115.768 E.0057
G1 X114.844 Y116.149 E.01878
G1 X114.965 Y116.544 E.01814
G1 X115.018 Y116.94 E.01753
G1 X115.018 Y133.531 E.72759
G1 X114.859 Y134.321 E.03535
G1 X114.734 Y134.584 E.01279
G1 X114.528 Y134.877 E.01571
G1 X114.233 Y135.153 E.01769
G1 X113.965 Y135.324 E.01396
G1 X113.561 Y135.495 E.01922
G1 X113.171 Y135.583 E.01756
G1 X112.966 Y135.599 E.00903
G1 X107.035 Y135.599 E.26008
G1 X106.672 Y135.556 E.01603
G1 X106.369 Y135.478 E.01375
G1 X106.094 Y135.367 E.01302
G1 X105.815 Y135.197 E.01432
G1 X105.535 Y134.947 E.01643
G1 X105.342 Y134.694 E.01399
G1 X105.2 Y134.438 E.01282
G1 X105.156 Y134.332 E.00506
G1 X104.997 Y133.741 E.0268
G1 X104.982 Y133.547 E.00857
G1 X104.982 Y116.949 E.72793
G1 X105.1 Y116.285 E.02958
G1 X105.215 Y115.991 E.01383
G1 X105.35 Y115.761 E.01172
G1 X105.354 Y115.632 E.00566
G1 X105.121 Y115.174 E.02253
G1 X105.055 Y114.945 E.01044
G1 X104.982 Y114.452 E.02188
G1 X104.982 Y105.549 E.39045
G1 X105.1 Y104.885 E.02958
G1 X105.215 Y104.591 E.01383
G1 X105.35 Y104.361 E.01172
G1 X105.354 Y104.232 E.00566
G1 X105.121 Y103.774 E.02253
G1 X105.055 Y103.545 E.01044
G1 X104.982 Y103.052 E.02188
G1 X104.982 Y86.467 E.72735
G1 X105.075 Y85.897 E.02532
G1 X105.177 Y85.593 E.01404
G1 X105.326 Y85.317 E.01377
G1 X105.484 Y85.12 E.01109
G1 X105.824 Y85.408 F18000
G1 F2400
G1 X105.906 Y85.311 E.00557
G1 X106.165 Y85.114 E.01428
G1 X106.449 Y84.971 E.01395
G1 X106.62 Y84.918 E.00785
G1 X107.039 Y84.849 E.01858
G1 X112.973 Y84.849 E.26025
G1 X113.215 Y84.878 E.01071
G1 X113.467 Y84.939 E.01134
G1 X113.679 Y85.019 E.00995
G1 X113.889 Y85.139 E.0106
G1 X114.109 Y85.326 E.0127
G1 X114.261 Y85.515 E.01061
G1 X114.411 Y85.786 E.01358
G1 X114.555 Y86.289 E.02296
G1 X114.57 Y86.448 E.007
G1 X114.57 Y103.063 E.72868
G1 X114.482 Y103.552 E.02177
G1 X114.399 Y103.779 E.01062
G1 X114.28 Y103.989 E.01056
G1 X114.09 Y104.213 E.01291
G1 X114.06 Y104.323 E.00497
G1 X114.088 Y104.386 E.00304
G1 X114.261 Y104.596 E.01195
G1 X114.412 Y104.868 E.0136
G1 X114.539 Y105.286 E.01916
G1 X114.57 Y105.531 E.01085
G1 X114.57 Y114.463 E.39173
G1 X114.482 Y114.952 E.02177
G1 X114.399 Y115.179 E.01062
G1 X114.28 Y115.389 E.01056
G1 X114.09 Y115.613 E.01291
G1 X114.06 Y115.723 E.00497
G1 X114.088 Y115.786 E.00304
G1 X114.261 Y115.996 E.01195
