; HEADER_BLOCK_START
; generated by AnycubicSlicerNext 1.3.9.3 on 2026-02-23 at 18:50:03
; total layer number: 75
; filament_density: 1.24
; filament_diameter: 1.75
; max_z_height: 15.04
; exclude_object: 0
; model_instances: 1
; source_info: {"models":[{"file_source":0,"mo_file_id":-1,"name":"Top_Mount.stl_id_0_copy_0"}],"models_from":0,"plate_index":1,"slice_paras_process":2,"software_version":"AnycubicSlicerNext 1.3.9.3 20260131154219"}
; paint_info = [{"material_type":"PLA","paint_color":[105,164,255],"paint_index":0}]
; project_info = {"flush_multiplier":1.0,"flush_volumes_chan_multipliers":[1.0,1.0,1.0,1.0],"flush_volumes_matrix":[0.0],"flush_volumes_vector":[140.0,140.0]}
; flush_multiplier_calculate_by_acnext: 1
; test_mode: 0
; HEADER_BLOCK_END

; THUMBNAIL_BLOCK_START
; THUMBNAIL_BLOCK_END

; external perimeters extrusion width = 0.42mm
; perimeters extrusion width = 0.45mm
; infill extrusion width = 0.45mm
; solid infill extrusion width = 0.42mm
; top infill extrusion width = 0.42mm
; first layer extrusion width = 0.50mm

; EXECUTABLE_BLOCK_START
M201 X2000 Y2000 Z800 E2000
M203 X300 Y300 Z8 E100
M204 P2000 R2000 T2000
M205 X10.00 Y10.00 Z2.00 E5.00
;TYPE:Custom
G90 ; use absolute coordinates
M83 ; extruder relative mode
M104 S220 ; set extruder temp
M140 S60 ; set bed temp
M190 S60 ; wait for bed temp
M109 S220 ; wait for extruder temp
G28                                        ; move X/Y/Z to min endstops
G1 Z0.28                                   ; lift nozzle a bit 
G92 E0 
G1 Y3 F1800                                    ; zero the extruded length 
G1 X60  E25 F500                       ; Extrude 25mm of filament in a 5cm line. 
G92 E0                                     ; zero the extruded length again 
G1 E-2 F500                                ; Retract a little 
G1 X70 F4000                              ; Quickly wipe away from the filament line
M117
G90
G21
M83 ; use relative distances for extrusion
; EXECUTABLE_BLOCK_HEAD
; filament start gcode
M75 ; The first extruder is ready.
M106 S0
;LAYER_CHANGE
;Z:0.24
;HEIGHT:0.24
; BEFORE_LAYER_CHANGE 0 @ 0.24mm
G92 E0
; AFTER_LAYER_CHANGE 0 @ 0.24mm
M204 S500
; printing object "Top_Mount.stl" id:0 copy 0
G1 E-.8 F3600
G1 X56.874 Y57.106 F18000
G1 Z.24
G1 E.8 F3600
;TYPE:Brim
;WIDTH:0.5
G1 F2400
G1 X57.339 Y56.673 E.02788
G1 X57.864 Y56.314 E.02788
G1 X58.436 Y56.037 E.02788
G1 X59.043 Y55.849 E.02788
G1 X59.675 Y55.752 E.02806
G1 X60.004 Y55.739 E.01444
G1 X159.992 Y55.739 E4.38505
G1 X160.634 Y55.787 E.02825
G1 X161.254 Y55.929 E.02788
G1 X161.846 Y56.16 E.02788
G1 X162.396 Y56.478 E.02788
G1 X162.894 Y56.874 E.02788
G1 X163.327 Y57.339 E.02788
G1 X163.686 Y57.864 E.02788
G1 X163.963 Y58.436 E.02788
G1 X164.151 Y59.043 E.02788
G1 X164.248 Y59.675 E.02806
G1 X164.261 Y60.004 E.01444
G1 X164.261 Y159.992 E4.38505
G1 X164.213 Y160.634 E.02825
G1 X164.071 Y161.254 E.02788
G1 X163.84 Y161.846 E.02788
G1 X163.522 Y162.396 E.02788
G1 X163.126 Y162.894 E.02788
G1 X162.661 Y163.327 E.02788
G1 X162.136 Y163.686 E.02788
G1 X161.564 Y163.963 E.02788
G1 X160.957 Y164.151 E.02788
G1 X160.325 Y164.248 E.02806
G1 X159.996 Y164.261 E.01444
G1 X60.008 Y164.261 E4.38505
G1 X59.366 Y164.213 E.02825
G1 X58.746 Y164.071 E.02788
G1 X58.154 Y163.84 E.02788
G1 X57.604 Y163.522 E.02788
G1 X57.106 Y163.126 E.02788
G1 X56.673 Y162.661 E.02788
G1 X56.314 Y162.136 E.02788
G1 X56.037 Y161.564 E.02788
G1 X55.849 Y160.957 E.02788
G1 X55.752 Y160.325 E.02806
G1 X55.739 Y159.996 E.01444
G1 X55.739 Y60.008 E4.38505
G1 X55.787 Y59.366 E.02825
G1 X55.929 Y58.746 E.02788
G1 X56.16 Y58.154 E.02788
G1 X56.478 Y57.604 E.02788
G1 X56.849 Y57.138 E.02612
G1 X57.201 Y57.418 F18000
G1 F2400
G1 X57.211 Y57.405 E.00072
G1 X57.628 Y57.019 E.02493
G1 X58.081 Y56.709 E.02405
G1 X58.592 Y56.46 E.02493
G1 X59.154 Y56.286 E.02581
G1 X59.71 Y56.2 E.02469
G1 X60.016 Y56.188 E.01339
G1 X159.98 Y56.188 E4.38404
G1 X160.577 Y56.234 E.02626
G1 X161.131 Y56.362 E.02493
G1 X161.641 Y56.562 E.02405
G1 X162.135 Y56.845 E.02493
G1 X162.595 Y57.211 E.02581
G1 X162.981 Y57.628 E.02493
G1 X163.291 Y58.081 E.02405
G1 X163.54 Y58.592 E.02493
G1 X163.714 Y59.154 E.02581
G1 X163.8 Y59.71 E.02469
G1 X163.812 Y60.01 E.01317
G1 X163.812 Y159.97 E4.38382
G1 X163.769 Y160.557 E.02582
G1 X163.638 Y161.131 E.02581
G1 X163.438 Y161.641 E.02405
G1 X163.155 Y162.135 E.02493
G1 X162.789 Y162.595 E.02581
G1 X162.372 Y162.981 E.02493
G1 X161.919 Y163.291 E.02405
G1 X161.408 Y163.54 E.02493
G1 X160.846 Y163.714 E.02581
G1 X160.29 Y163.8 E.02469
G1 X159.984 Y163.812 E.01339
G1 X60.03 Y163.812 E4.3836
G1 X59.443 Y163.769 E.02582
G1 X58.869 Y163.638 E.02581
G1 X58.359 Y163.438 E.02405
G1 X57.865 Y163.155 E.02493
G1 X57.405 Y162.789 E.02581
G1 X57.019 Y162.372 E.02493
G1 X56.709 Y161.919 E.02405
G1 X56.46 Y161.408 E.02493
G1 X56.286 Y160.846 E.02581
G1 X56.2 Y160.29 E.02469
G1 X56.188 Y159.984 E.01339
G1 X56.188 Y60.03 E4.3836
G1 X56.231 Y59.443 E.02582
G1 X56.362 Y58.869 E.02581
G1 X56.562 Y58.359 E.02405
G1 X56.845 Y57.865 E.02493
G1 X57.176 Y57.449 E.02333
G1 X57.528 Y57.729 F18000
G1 F2400
G1 X57.548 Y57.704 E.00142
G1 X57.901 Y57.377 E.0211
G1 X58.299 Y57.103 E.02116
G1 X58.748 Y56.883 E.02197
G1 X59.265 Y56.722 E.02372
G1 X59.746 Y56.649 E.02136
G1 X60.028 Y56.636 E.01234
G1 X159.957 Y56.637 E4.38253
G1 X160.499 Y56.678 E.02381
G1 X161.007 Y56.795 E.02288
G1 X161.456 Y56.973 E.02116
G1 X161.873 Y57.212 E.0211
G1 X162.296 Y57.548 E.0237
G1 X162.623 Y57.901 E.0211
G1 X162.897 Y58.299 E.02116
G1 X163.117 Y58.748 E.02197
G1 X163.278 Y59.265 E.02372
G1 X163.351 Y59.747 E.02137
G1 X163.363 Y60.017 E.01187
G1 X163.364 Y159.948 E4.38259
G1 X163.322 Y160.5 E.02427
G1 X163.204 Y161.008 E.02285
G1 X163.027 Y161.456 E.02112
G1 X162.788 Y161.873 E.0211
G1 X162.452 Y162.296 E.0237
G1 X162.099 Y162.623 E.0211
G1 X161.701 Y162.897 E.02116
G1 X161.252 Y163.117 E.02197
G1 X160.735 Y163.278 E.02372
G1 X160.254 Y163.351 E.02136
G1 X159.972 Y163.364 E.01235
G1 X60.052 Y163.364 E4.38212
G1 X59.5 Y163.322 E.02427
G1 X58.992 Y163.204 E.02285
G1 X58.544 Y163.027 E.02112
G1 X58.127 Y162.788 E.0211
G1 X57.704 Y162.452 E.0237
G1 X57.377 Y162.099 E.0211
G1 X57.103 Y161.701 E.02116
G1 X56.883 Y161.252 E.02197
G1 X56.722 Y160.735 E.02372
G1 X56.649 Y160.254 E.02136
G1 X56.636 Y159.972 E.01234
G1 X56.636 Y60.052 E4.38213
G1 X56.678 Y59.5 E.02427
G1 X56.796 Y58.992 E.02285
G1 X56.973 Y58.544 E.02112
G1 X57.212 Y58.127 E.0211
G1 X57.503 Y57.761 E.02053
G1 X57.855 Y58.041 F18000
G1 F2400
G1 X57.885 Y58.003 E.00212
G1 X58.19 Y57.723 E.01816
G1 X58.518 Y57.497 E.01744
G1 X58.905 Y57.305 E.01897
G1 X59.376 Y57.159 E.02161
G1 X59.783 Y57.097 E.01806
G1 X60.04 Y57.085 E.01129
G1 X159.935 Y57.085 E4.38099
G1 X160.421 Y57.122 E.02136
G1 X160.883 Y57.228 E.0208
G1 X161.252 Y57.374 E.0174
G1 X161.612 Y57.579 E.01816
G1 X161.997 Y57.885 E.02159
G1 X162.277 Y58.19 E.01816
G1 X162.503 Y58.518 E.01744
G1 X162.695 Y58.905 E.01897
G1 X162.841 Y59.376 E.02161
G1 X162.903 Y59.783 E.01808
G1 X162.915 Y60.03 E.01083
G1 X162.915 Y159.926 E4.38105
G1 X162.878 Y160.422 E.02181
G1 X162.771 Y160.883 E.02077
G1 X162.626 Y161.252 E.01737
G1 X162.421 Y161.612 E.01816
G1 X162.115 Y161.997 E.02159
G1 X161.81 Y162.277 E.01816
G1 X161.482 Y162.503 E.01744
G1 X161.095 Y162.695 E.01897
G1 X160.624 Y162.841 E.02161
G1 X160.217 Y162.903 E.01806
G1 X159.96 Y162.915 E.0113
G1 X60.074 Y162.915 E4.38059
G1 X59.578 Y162.878 E.02181
G1 X59.117 Y162.771 E.02077
G1 X58.748 Y162.626 E.01737
G1 X58.388 Y162.421 E.01816
G1 X58.003 Y162.115 E.02159
G1 X57.723 Y161.81 E.01816
G1 X57.497 Y161.482 E.01744
G1 X57.305 Y161.095 E.01897
G1 X57.159 Y160.624 E.02161
G1 X57.097 Y160.217 E.01806
G1 X57.085 Y159.96 E.01129
G1 X57.085 Y60.074 E4.3806
G1 X57.122 Y59.578 E.02181
G1 X57.229 Y59.117 E.02077
G1 X57.374 Y58.748 E.01737
G1 X57.579 Y58.388 E.01816
G1 X57.83 Y58.072 E.01772
G1 X58.183 Y58.352 F18000
G1 F2400
G1 X58.222 Y58.302 E.0028
G1 X58.464 Y58.081 E.01437
G1 X58.738 Y57.89 E.01463
G1 X59.063 Y57.728 E.01595
G1 X59.487 Y57.596 E.01948
G1 X59.82 Y57.545 E.01479
G1 X60.054 Y57.533 E.01025
G1 X159.913 Y57.534 E4.37943
G1 X160.343 Y57.566 E.01891
G1 X160.759 Y57.662 E.01871
G1 X161.066 Y57.784 E.01451
G1 X161.351 Y57.946 E.01437
G1 X161.698 Y58.222 E.01944
G1 X161.919 Y58.464 E.01437
G1 X162.11 Y58.738 E.01463
G1 X162.272 Y59.063 E.01595
G1 X162.404 Y59.487 E.01948
G1 X162.455 Y59.821 E.01482
G1 X162.467 Y60.044 E.00978
G1 X162.467 Y159.904 E4.37948
G1 X162.434 Y160.344 E.01935
G1 X162.338 Y160.759 E.01868
G1 X162.216 Y161.066 E.01448
G1 X162.054 Y161.351 E.01437
G1 X161.778 Y161.698 E.01944
G1 X161.536 Y161.919 E.01437
G1 X161.262 Y162.11 E.01463
G1 X160.937 Y162.272 E.01595
G1 X160.513 Y162.404 E.01948
G1 X160.18 Y162.455 E.01479
G1 X159.946 Y162.467 E.01025
G1 X60.096 Y162.467 E4.37904
G1 X59.656 Y162.434 E.01935
G1 X59.241 Y162.338 E.01868
G1 X58.934 Y162.216 E.01448
G1 X58.649 Y162.054 E.01437
G1 X58.302 Y161.778 E.01944
G1 X58.081 Y161.536 E.01437
G1 X57.89 Y161.262 E.01463
G1 X57.728 Y160.937 E.01595
G1 X57.596 Y160.513 E.01948
G1 X57.545 Y160.18 E.01479
G1 X57.533 Y159.946 E.01024
G1 X57.533 Y60.096 E4.37904
G1 X57.566 Y59.656 E.01935
G1 X57.662 Y59.241 E.01868
G1 X57.784 Y58.934 E.01448
G1 X57.946 Y58.649 E.01437
G1 X58.158 Y58.384 E.01489
G1 X58.511 Y58.668 F18000
G1 F2400
G1 X58.557 Y58.61 E.00324
G1 X58.888 Y58.343 E.01864
G1 X59.239 Y58.156 E.01747
G1 X59.557 Y58.055 E.01462
G1 X60.048 Y57.982 E.0218
G1 X159.952 Y57.982 E4.38139
G1 X160.522 Y58.075 E.02532
G1 X160.826 Y58.177 E.01404
G1 X161.102 Y58.326 E.01377
G1 X161.393 Y58.56 E.01635
G1 X161.605 Y58.808 E.01435
G1 X161.798 Y59.141 E.01686
G1 X161.965 Y59.646 E.02331
G1 X162.018 Y60.04 E.01746
G1 X162.018 Y159.952 E4.38175
G1 X161.925 Y160.522 E.02533
G1 X161.823 Y160.826 E.01404
G1 X161.674 Y161.102 E.01377
G1 X161.44 Y161.393 E.01635
G1 X161.192 Y161.605 E.01435
G1 X160.859 Y161.798 E.01686
G1 X160.354 Y161.965 E.02331
G1 X159.96 Y162.018 E.01746
G1 X60.048 Y162.018 E4.38175
G1 X59.478 Y161.925 E.02533
G1 X59.174 Y161.823 E.01404
G1 X58.898 Y161.674 E.01377
G1 X58.61 Y161.443 E.01618
G1 X58.343 Y161.112 E.01864
G1 X58.156 Y160.761 E.01747
G1 X58.055 Y160.443 E.01462
G1 X57.982 Y159.952 E.0218
G1 X57.982 Y60.048 E4.38139
G1 X58.075 Y59.478 E.02532
G1 X58.177 Y59.174 E.01404
G1 X58.326 Y58.898 E.01377
G1 X58.486 Y58.699 E.01118
G1 X58.825 Y58.987 F18000
G1 F2400
G1 X58.906 Y58.892 E.00548
G1 X59.165 Y58.695 E.01428
G1 X59.449 Y58.552 E.01395
G1 X59.62 Y58.499 E.00785
G1 X60.039 Y58.43 E.01858
G1 X159.963 Y58.43 E4.3823
G1 X160.452 Y58.518 E.02177
G1 X160.679 Y58.601 E.01062
G1 X160.889 Y58.72 E.01056
G1 X161.109 Y58.907 E.0127
G1 X161.261 Y59.096 E.01061
G1 X161.412 Y59.368 E.01363
G1 X161.539 Y59.786 E.01916
G1 X161.57 Y60.031 E.01085
G1 X161.57 Y159.963 E4.38263
G1 X161.482 Y160.452 E.02177
G1 X161.399 Y160.679 E.01062
G1 X161.28 Y160.889 E.01056
G1 X161.093 Y161.109 E.0127
G1 X160.904 Y161.261 E.01061
G1 X160.632 Y161.412 E.01363
G1 X160.214 Y161.539 E.01916
G1 X159.969 Y161.57 E.01085
G1 X60.037 Y161.57 E4.38263
G1 X59.548 Y161.482 E.02177
G1 X59.321 Y161.399 E.01062
G1 X59.111 Y161.28 E.01056
G1 X58.892 Y161.094 E.01261
G1 X58.695 Y160.835 E.01428
G1 X58.552 Y160.551 E.01395
G1 X58.499 Y160.38 E.00785
G1 X58.43 Y159.961 E.01858
G1 X58.43 Y60.037 E4.3823
G1 X58.518 Y59.548 E.02177
G1 X58.601 Y59.321 E.01062
G1 X58.72 Y59.111 E.01056
G1 X58.799 Y59.018 E.00538
G1 X59.126 Y59.316 F18000
G1 F2400
G1 X59.244 Y59.187 E.00766
G1 X59.366 Y59.096 E.00668
G1 X59.592 Y58.977 E.01118
G1 X59.696 Y58.941 E.00485
G1 X60.028 Y58.879 E.01479
G1 X159.975 Y58.879 E4.38331
G1 X160.372 Y58.959 E.01774
G1 X160.514 Y59.018 E.00677
G1 X160.665 Y59.108 E.00771
G1 X160.813 Y59.244 E.00881
G1 X160.904 Y59.366 E.00668
G1 X161.021 Y59.587 E.01096
G1 X161.109 Y59.911 E.01469
G1 X161.121 Y60.023 E.00496
G1 X161.121 Y159.975 E4.38352
G1 X161.041 Y160.372 E.01774
G1 X160.982 Y160.514 E.00677
G1 X160.892 Y160.665 E.00771
G1 X160.756 Y160.813 E.00881
G1 X160.634 Y160.904 E.00668
G1 X160.413 Y161.021 E.01096
G1 X160.089 Y161.109 E.01469
G1 X159.977 Y161.121 E.00496
G1 X60.025 Y161.121 E4.38352
G1 X59.628 Y161.041 E.01774
G1 X59.486 Y160.982 E.00677
G1 X59.335 Y160.892 E.00771
G1 X59.187 Y160.756 E.00881
G1 X59.096 Y160.634 E.00668
G1 X58.977 Y160.408 E.01118
G1 X58.941 Y160.304 E.00485
G1 X58.879 Y159.972 E.01479
G1 X58.879 Y60.025 E4.38331
G1 X58.959 Y59.628 E.01774
G1 X59.018 Y59.486 E.00677
G1 X59.101 Y59.347 E.00711
G1 X59.485 Y59.579 F18000
G1 F2400
G1 X59.499 Y59.555 E.00118
G1 X59.641 Y59.451 E.0077
G1 X59.791 Y59.379 E.00734
G1 X60.015 Y59.327 E.01007
G1 X159.989 Y59.327 E4.38444
G1 X160.274 Y59.396 E.01287
G1 X160.445 Y59.499 E.00874
G1 X160.549 Y59.641 E.0077
G1 X160.621 Y59.791 E.00734
G1 X160.673 Y60.015 E.01008
G1 X160.673 Y159.989 E4.38444
G1 X160.604 Y160.274 E.01287
G1 X160.501 Y160.445 E.00874
G1 X160.359 Y160.549 E.0077
G1 X160.209 Y160.621 E.00734
G1 X159.985 Y160.673 E.01008
G1 X60.011 Y160.673 E4.38444
G1 X59.726 Y160.604 E.01287
G1 X59.555 Y160.501 E.00874
G1 X59.451 Y160.359 E.0077
G1 X59.379 Y160.209 E.00734
G1 X59.327 Y159.985 E.01007
G1 X59.327 Y60.011 E4.38444
G1 X59.396 Y59.726 E.01287
G1 X59.465 Y59.613 E.00581
G1 X59.824 Y59.861 F18000
G1 F2400
G1 X60 Y59.776 E.00855
G1 X160 Y59.776 E4.3856
G1 X160.139 Y59.824 E.00648
G1 X160.224 Y60 E.00855
G1 X160.224 Y160 E4.3856
G1 X160.176 Y160.139 E.00648
G1 X160 Y160.224 E.00855
G1 X60 Y160.224 E4.3856
G1 X59.861 Y160.176 E.00648
G1 X59.776 Y160 E.00855
G1 X59.776 Y60 E4.3856
G1 X59.811 Y59.898 E.00472
G1 E-.8 F3600
G1 X159.675 Y159.675 F18000
G1 E.8 F3600
;TYPE:Outer wall
G1 F2400
G1 X60.325 Y159.675 E4.3571
G1 X60.325 Y60.325 E4.3571
G1 X159.675 Y60.325 E4.3571
G1 X159.675 Y159.655 E4.35622
G1 X159.227 Y159.227 F18000
;TYPE:Inner wall
G1 F2400
G1 X60.773 Y159.227 E4.31776
G1 X60.773 Y60.773 E4.31776
G1 X159.227 Y60.773 E4.31776
G1 X159.227 Y159.207 E4.31688
G1 E-.8 F3600
G1 X65.125 Y83.58 F18000
G1 E.8 F3600
;TYPE:Outer wall
G1 F2400
G1 X95.775 Y83.58 E1.34419
G1 X95.775 Y76.42 E.31404
G1 X65.125 Y76.42 E1.34419
G1 X65.125 Y83.56 E.31317
G1 X64.677 Y84.029 F18000
;TYPE:Inner wall
G1 F2400
G1 X96.223 Y84.029 E1.38353
G1 X96.223 Y75.971 E.35338
G1 X64.677 Y75.971 E1.38353
G1 X64.677 Y84.009 E.3525
G1 E-.8 F3600
G1 X154.275 Y83.58 F18000
G1 E.8 F3600
;TYPE:Outer wall
G1 F2400
G1 X154.275 Y76.42 E.31402
G1 X127.137 Y76.405 E1.19016
G1 X123.625 Y76.421 E.15403
G1 X123.625 Y83.579 E.31392
G1 X127.137 Y83.595 E.15403
G1 X154.255 Y83.58 E1.18928
G1 X154.723 Y84.028 F18000
;TYPE:Inner wall
G1 F2400
G1 X154.723 Y75.972 E.35334
G1 X127.136 Y75.957 E1.20986
G1 X123.177 Y75.975 E.17366
G1 X123.177 Y84.025 E.35308
G1 X127.136 Y84.043 E.17366
G1 X154.703 Y84.028 E1.20899
G1 E-.8 F3600
G1 X124.69 Y99.806 F18000
G1 E.8 F3600
;TYPE:Outer wall
G1 F2400
G1 X124.696 Y99.796 E.0005
G1 X124.981 Y99.046 E.03518
G1 X125.077 Y98.25 E.03518
G1 X124.981 Y97.454 E.03518
G1 X124.696 Y96.704 E.03518
G1 X124.241 Y96.044 E.03518
G1 X123.64 Y95.512 E.03518
G1 X122.93 Y95.139 E.03518
G1 X122.151 Y94.947 E.03518
G1 X121.349 Y94.947 E.03518
G1 X120.57 Y95.139 E.03518
G1 X119.86 Y95.512 E.03518
G1 X119.259 Y96.044 E.03518
G1 X119.032 Y96.374 E.01759
G1 X118.804 Y96.704 E.01759
G1 X118.519 Y97.454 E.03518
G1 X118.423 Y98.25 E.03518
G1 X118.519 Y99.046 E.03518
G1 X118.804 Y99.796 E.03518
G1 X119.259 Y100.456 E.03518
G1 X119.86 Y100.988 E.03518
G1 X120.57 Y101.361 E.03518
G1 X120.96 Y101.457 E.01759
G1 X121.349 Y101.553 E.01759
G1 X122.151 Y101.553 E.03518
G1 X122.93 Y101.361 E.03518
G1 X123.64 Y100.988 E.03518
G1 X124.241 Y100.456 E.03518
G1 X124.678 Y99.822 E.03381
G1 X125.112 Y99.966 F18000
;TYPE:Inner wall
G1 F2400
G1 X125.419 Y99.154 E.03806
G1 X125.529 Y98.25 E.03996
G1 X125.419 Y97.346 E.03996
G1 X125.096 Y96.494 E.03996
G1 X124.579 Y95.744 E.03996
G1 X123.897 Y95.14 E.03996
G1 X123.09 Y94.716 E.03996
G1 X122.206 Y94.498 E.03996
G1 X121.294 Y94.498 E.03996
G1 X120.41 Y94.716 E.03996
G1 X119.603 Y95.14 E.03996
G1 X118.921 Y95.744 E.03996
G1 X118.404 Y96.494 E.03996
G1 X118.081 Y97.346 E.03996
G1 X117.971 Y98.25 E.03996
